; G-Code generated by Simplify3D(R) Version 3.0.2
; Jan 30, 2016 at 5:12:39 PM
; Settings Summary
;   processName,Process1
;   applyToModels,rpiaplus-standoff,rpiaplus-standoff(2),rpiaplus-standoff(3),rpiaplus-standoff(4)
;   profileName,Printrbot Simple Metal(3) (modified)
;   profileVersion,2015-05-01 08:00:00
;   baseProfile,
;   printMaterial,PLA
;   printQuality,Medium
;   printExtruders,
;   extruderName,Primary Extruder
;   extruderToolheadNumber,0
;   extruderDiameter,0.4
;   extruderAutoWidth,0
;   extruderWidth,0.4
;   extrusionMultiplier,1
;   extruderUseRetract,1
;   extruderRetractionDistance,1
;   extruderExtraRestartDistance,0
;   extruderRetractionZLift,0
;   extruderRetractionSpeed,1800
;   extruderUseCoasting,0
;   extruderCoastingDistance,0.2
;   extruderUseWipe,0
;   extruderWipeDistance,5
;   primaryExtruder,0
;   layerHeight,0.3
;   topSolidLayers,3
;   bottomSolidLayers,3
;   perimeterOutlines,2
;   printPerimetersInsideOut,1
;   startPointOption,2
;   startPointOriginX,0
;   startPointOriginY,0
;   startPointOriginZ,300
;   sequentialIslands,0
;   spiralVaseMode,0
;   firstLayerHeightPercentage,90
;   firstLayerWidthPercentage,100
;   firstLayerUnderspeed,0.5
;   useRaft,0
;   raftExtruder,0
;   raftLayers,3
;   raftOffset,3
;   raftSeparationDistance,0.14
;   raftInfill,85
;   disableRaftBaseLayers,0
;   useSkirt,1
;   skirtExtruder,0
;   skirtLayers,1
;   skirtOutlines,2
;   skirtOffset,4
;   usePrimePillar,0
;   primePillarExtruder,999
;   primePillarWidth,12
;   primePillarLocation,7
;   primePillarSpeedMultiplier,1
;   useOozeShield,0
;   oozeShieldExtruder,999
;   oozeShieldOffset,2
;   oozeShieldOutlines,1
;   oozeShieldSidewallShape,1
;   oozeShieldSidewallAngle,30
;   oozeShieldSpeedMultiplier,1
;   infillExtruder,0
;   internalInfillPattern,Rectilinear
;   externalInfillPattern,Rectilinear
;   infillPercentage,20
;   outlineOverlapPercentage,15
;   infillExtrusionWidthPercentage,100
;   minInfillLength,5
;   infillLayerInterval,1
;   infillAngles,45,-45
;   overlapInfillAngles,0
;   generateSupport,0
;   supportExtruder,0
;   supportInfillPercentage,30
;   supportExtraInflation,0
;   denseSupportLayers,0
;   denseSupportInfillPercentage,70
;   supportLayerInterval,1
;   supportHorizontalPartOffset,0.3
;   supportUpperSeparationLayers,1
;   supportLowerSeparationLayers,1
;   supportType,0
;   supportGridSpacing,4
;   maxOverhangAngle,45
;   supportAngles,0
;   temperatureName,Primary Extruder,Heated Bed
;   temperatureNumber,0,1
;   temperatureSetpointCount,1,1
;   temperatureSetpointLayers,1,1
;   temperatureSetpointTemperatures,210,0
;   temperatureStabilizeAtStartup,1,1
;   temperatureHeatedBed,0,1
;   temperatureRelayBetweenLayers,0,0
;   temperatureRelayBetweenLoops,0,0
;   fanLayers,1,2
;   fanSpeeds,0,100
;   blipFanToFullPower,1
;   adjustSpeedForCooling,1
;   minSpeedLayerTime,15
;   minCoolingSpeedSlowdown,20
;   increaseFanForCooling,0
;   minFanLayerTime,45
;   maxCoolingFanSpeed,100
;   increaseFanForBridging,0
;   bridgingFanSpeed,100
;   use5D,1
;   relativeEdistances,0
;   allowEaxisZeroing,1
;   independentExtruderAxes,0
;   includeM10123,0
;   stickySupport,1
;   applyToolheadOffsets,0
;   gcodeXoffset,0
;   gcodeYoffset,0
;   gcodeZoffset,0
;   overrideMachineDefinition,1
;   machineTypeOverride,0
;   strokeXoverride,150
;   strokeYoverride,150
;   strokeZoverride,150
;   originOffsetXoverride,0
;   originOffsetYoverride,0
;   originOffsetZoverride,0
;   homeXdirOverride,-1
;   homeYdirOverride,-1
;   homeZdirOverride,-1
;   flipXoverride,1
;   flipYoverride,-1
;   flipZoverride,1
;   toolheadOffsets,0,0|0,0|0,0|0,0|0,0|0,0
;   overrideFirmwareConfiguration,1
;   firmwareTypeOverride,RepRap (Marlin/Repetier/Sprinter)
;   GPXconfigOverride,r2
;   baudRateOverride,250000
;   overridePrinterModels,1
;   printerModelsOverride
;   startingGcode,G28 X0 Y0 ; home X and Y axes, G29 ; probe Z
;   layerChangeGcode,
;   retractionGcode,
;   toolChangeGcode,
;   endingGcode,M104 S0 T0 ; turn off extruder,M140 S0 T1 ; turn off bed,G28 X0 ; home X axis,M84 ; disable motors
;   createX3G,0
;   celebration,0
;   celebrationSong,Random Song
;   createMB5G,0
;   postProcessing,
;   defaultSpeed,3000
;   outlineUnderspeed,0.5
;   solidInfillUnderspeed,0.8
;   supportUnderspeed,0.8
;   rapidXYspeed,3600
;   rapidZspeed,1000
;   minBridgingArea,50
;   bridgingExtraInflation,0
;   bridgingExtrusionMultiplier,1
;   bridgingSpeedMultiplier,1
;   filamentDiameter,1.75
;   filamentPricePerKg,46
;   filamentDensity,1.25
;   useMinPrintHeight,0
;   minPrintHeight,0
;   useMaxPrintHeight,0
;   maxPrintHeight,0
;   useDiaphragm,0
;   diaphragmLayerInterval,20
;   robustSlicing,1
;   mergeAllIntoSolid,0
;   onlyRetractWhenCrossingOutline,1
;   retractBetweenLayers,1
;   useRetractionMinTravel,0
;   retractionMinTravel,3
;   retractWhileWiping,0
;   onlyWipeOutlines,1
;   avoidCrossingOutline,0
;   maxMovementDetourFactor,3
;   toolChangeRetractionDistance,12
;   toolChangeExtraRestartDistance,-0.5
;   toolChangeRetractionSpeed,600
;   allowThinWallGapFill,1
;   thinWallAllowedOverlapPercentage,10
;   horizontalSizeCompensation,0
G90
M82
M106 S0
M140 S0
M104 S210 T0
M109 S210 T0
G28 X0 Y0 ; home X and Y axes
 G29 ; probe Z
G92 E0
G1 E-1.0000 F1800
G1 Z0.270 F1000
; layer 1, Z = 0.27
T0
; tool H0.300 W0.400
; skirt
G1 X68.935 Y55.094 F3600
G1 E0.0000 F540
G92 E0
G1 X69.162 Y54.782 E0.0193 F918
G1 X69.179 Y54.761 E0.0206
G1 X69.757 Y54.099 E0.0645
G1 X69.776 Y54.079 E0.0658
G1 X70.055 Y53.813 E0.0851
G1 X70.075 Y53.795 E0.0864
G1 X70.762 Y53.247 E0.1303
G1 X70.784 Y53.231 E0.1316
G1 X71.107 Y53.018 E0.1509
G1 X71.130 Y53.004 E0.1522
G1 X71.904 Y52.587 E0.1961
G1 X71.928 Y52.576 E0.1975
G1 X72.283 Y52.424 E0.2167
G1 X72.308 Y52.415 E0.2181
G1 X73.145 Y52.143 E0.2619
G1 X73.171 Y52.136 E0.2633
G1 X73.548 Y52.050 E0.2826
G1 X73.574 Y52.045 E0.2839
G1 X74.445 Y51.927 E0.3278
G1 X74.472 Y51.924 E0.3291
G1 X74.858 Y51.907 E0.3484
G1 X74.885 Y51.907 E0.3497
G1 X75.763 Y51.947 E0.3936
G1 X75.790 Y51.949 E0.3949
G1 X76.172 Y52.001 E0.4142
G1 X76.199 Y52.006 E0.4155
G1 X77.056 Y52.201 E0.4594
G1 X77.082 Y52.208 E0.4607
G1 X77.450 Y52.328 E0.4800
G1 X77.475 Y52.337 E0.4814
G1 X78.283 Y52.683 E0.5252
G1 X78.308 Y52.695 E0.5266
G1 X78.647 Y52.878 E0.5458
G1 X78.670 Y52.891 E0.5472
G1 X79.404 Y53.376 E0.5910
G1 X79.426 Y53.392 E0.5924
G1 X79.728 Y53.633 E0.6117
G1 X79.749 Y53.650 E0.6130
G1 X80.384 Y54.258 E0.6569
G1 X80.403 Y54.277 E0.6582
G1 X80.656 Y54.568 E0.6774
G1 X80.673 Y54.589 E0.6788
G1 X81.190 Y55.300 E0.7226
G1 X81.205 Y55.323 E0.7240
G1 X81.403 Y55.654 E0.7433
G1 X81.416 Y55.678 E0.7446
G1 X81.797 Y56.470 E0.7885
G1 X81.808 Y56.495 E0.7898
G1 X81.944 Y56.856 E0.8091
G1 X81.952 Y56.882 E0.8104
G1 X82.186 Y57.730 E0.8543
G1 X82.192 Y57.756 E0.8556
G1 X82.261 Y58.136 E0.8749
G1 X82.264 Y58.163 E0.8763
G1 X82.343 Y59.038 E0.9201
G1 X82.344 Y59.065 E0.9215
G1 X82.344 Y59.452 E0.9407
G1 X82.343 Y59.478 E0.9421
G1 X82.264 Y60.354 E0.9860
G1 X82.261 Y60.381 E0.9873
G1 X82.192 Y60.761 E1.0066
G1 X82.186 Y60.787 E1.0079
G1 X81.952 Y61.635 E1.0518
G1 X81.944 Y61.660 E1.0531
G1 X81.808 Y62.022 E1.0724
G1 X81.797 Y62.047 E1.0737
G1 X81.416 Y62.839 E1.1176
G1 X81.403 Y62.863 E1.1189
G1 X81.205 Y63.194 E1.1382
G1 X81.190 Y63.217 E1.1396
G1 X80.673 Y63.928 E1.1834
G1 X80.656 Y63.949 E1.1848
G1 X80.403 Y64.239 E1.2040
G1 X80.384 Y64.259 E1.2054
G1 X80.126 Y64.506 E1.2232
G1 X80.384 Y64.752 E1.2410
G1 X80.403 Y64.772 E1.2423
G1 X80.656 Y65.062 E1.2616
G1 X80.673 Y65.083 E1.2629
G1 X81.190 Y65.794 E1.3068
G1 X81.205 Y65.817 E1.3081
G1 X81.403 Y66.149 E1.3274
G1 X81.416 Y66.172 E1.3287
G1 X81.797 Y66.965 E1.3726
G1 X81.808 Y66.989 E1.3739
G1 X81.944 Y67.351 E1.3932
G1 X81.952 Y67.376 E1.3945
G1 X82.186 Y68.224 E1.4384
G1 X82.192 Y68.250 E1.4398
G1 X82.261 Y68.630 E1.4590
G1 X82.264 Y68.657 E1.4604
G1 X82.343 Y69.533 E1.5042
G1 X82.344 Y69.560 E1.5056
G1 X82.344 Y69.946 E1.5249
G1 X82.343 Y69.973 E1.5262
G1 X82.264 Y70.849 E1.5701
G1 X82.261 Y70.875 E1.5714
G1 X82.192 Y71.255 E1.5907
G1 X82.186 Y71.282 E1.5920
G1 X81.952 Y72.129 E1.6359
G1 X81.944 Y72.155 E1.6372
G1 X81.808 Y72.516 E1.6565
G1 X81.797 Y72.541 E1.6578
G1 X81.416 Y73.333 E1.7017
G1 X81.403 Y73.357 E1.7030
G1 X81.205 Y73.689 E1.7223
G1 X81.190 Y73.711 E1.7237
G1 X80.673 Y74.422 E1.7675
G1 X80.656 Y74.443 E1.7689
G1 X80.403 Y74.734 E1.7881
G1 X80.384 Y74.753 E1.7895
G1 X80.126 Y75.000 E1.8073
G1 X80.384 Y75.247 E1.8251
G1 X80.403 Y75.266 E1.8264
G1 X80.656 Y75.557 E1.8457
G1 X80.673 Y75.578 E1.8470
G1 X81.190 Y76.289 E1.8909
G1 X81.205 Y76.311 E1.8922
G1 X81.403 Y76.643 E1.9115
G1 X81.416 Y76.667 E1.9128
G1 X81.797 Y77.459 E1.9567
G1 X81.808 Y77.484 E1.9580
G1 X81.944 Y77.845 E1.9773
G1 X81.952 Y77.871 E1.9787
G1 X82.186 Y78.718 E2.0225
G1 X82.192 Y78.745 E2.0239
G1 X82.261 Y79.125 E2.0431
G1 X82.264 Y79.151 E2.0445
G1 X82.343 Y80.027 E2.0883
G1 X82.344 Y80.054 E2.0897
G1 X82.344 Y80.440 E2.1090
G1 X82.343 Y80.467 E2.1103
G1 X82.264 Y81.343 E2.1542
G1 X82.261 Y81.370 E2.1555
G1 X82.192 Y81.750 E2.1748
G1 X82.186 Y81.776 E2.1761
G1 X81.952 Y82.624 E2.2200
G1 X81.944 Y82.649 E2.2213
G1 X81.808 Y83.011 E2.2406
G1 X81.797 Y83.035 E2.2419
G1 X81.416 Y83.828 E2.2858
G1 X81.403 Y83.851 E2.2872
G1 X81.205 Y84.183 E2.3064
G1 X81.190 Y84.206 E2.3078
G1 X80.673 Y84.917 E2.3516
G1 X80.656 Y84.938 E2.3530
G1 X80.403 Y85.228 E2.3722
G1 X80.384 Y85.248 E2.3736
G1 X80.126 Y85.494 E2.3914
G1 X80.384 Y85.741 E2.4092
G1 X80.403 Y85.760 E2.4105
G1 X80.656 Y86.051 E2.4298
G1 X80.673 Y86.072 E2.4311
G1 X81.190 Y86.783 E2.4750
G1 X81.205 Y86.806 E2.4763
G1 X81.403 Y87.137 E2.4956
G1 X81.416 Y87.161 E2.4969
G1 X81.797 Y87.953 E2.5408
G1 X81.808 Y87.978 E2.5422
G1 X81.944 Y88.340 E2.5614
G1 X81.952 Y88.365 E2.5628
G1 X82.186 Y89.213 E2.6066
G1 X82.192 Y89.239 E2.6080
G1 X82.261 Y89.619 E2.6272
G1 X82.264 Y89.646 E2.6286
G1 X82.343 Y90.522 E2.6725
G1 X82.344 Y90.548 E2.6738
G1 X82.344 Y90.935 E2.6931
G1 X82.343 Y90.962 E2.6944
G1 X82.264 Y91.837 E2.7383
G1 X82.261 Y91.864 E2.7396
G1 X82.192 Y92.244 E2.7589
G1 X82.186 Y92.270 E2.7602
G1 X81.952 Y93.118 E2.8041
G1 X81.944 Y93.144 E2.8054
G1 X81.808 Y93.505 E2.8247
G1 X81.797 Y93.530 E2.8261
G1 X81.416 Y94.322 E2.8699
G1 X81.403 Y94.346 E2.8713
G1 X81.205 Y94.677 E2.8905
G1 X81.190 Y94.700 E2.8919
G1 X80.673 Y95.411 E2.9357
G1 X80.656 Y95.432 E2.9371
G1 X80.403 Y95.723 E2.9563
G1 X80.384 Y95.742 E2.9577
G1 X79.749 Y96.350 E3.0015
G1 X79.728 Y96.367 E3.0029
G1 X79.426 Y96.608 E3.0222
G1 X79.404 Y96.624 E3.0235
G1 X78.670 Y97.109 E3.0674
G1 X78.647 Y97.122 E3.0687
G1 X78.308 Y97.305 E3.0880
G1 X78.283 Y97.317 E3.0893
G1 X77.475 Y97.663 E3.1332
G1 X77.450 Y97.672 E3.1345
G1 X77.082 Y97.792 E3.1538
G1 X77.056 Y97.799 E3.1552
G1 X76.199 Y97.994 E3.1990
G1 X76.172 Y97.999 E3.2004
G1 X75.790 Y98.051 E3.2196
G1 X75.763 Y98.053 E3.2210
G1 X74.885 Y98.093 E3.2648
G1 X74.858 Y98.093 E3.2662
G1 X74.472 Y98.076 E3.2854
G1 X74.445 Y98.073 E3.2868
G1 X73.574 Y97.955 E3.3306
G1 X73.548 Y97.950 E3.3320
G1 X73.171 Y97.864 E3.3513
G1 X73.145 Y97.857 E3.3526
G1 X72.308 Y97.585 E3.3965
G1 X72.283 Y97.576 E3.3978
G1 X71.928 Y97.424 E3.4171
G1 X71.904 Y97.413 E3.4184
G1 X71.130 Y96.996 E3.4623
G1 X71.107 Y96.982 E3.4636
G1 X70.784 Y96.769 E3.4829
G1 X70.762 Y96.753 E3.4843
G1 X70.075 Y96.205 E3.5281
G1 X70.055 Y96.187 E3.5295
G1 X69.776 Y95.921 E3.5487
G1 X69.757 Y95.901 E3.5501
G1 X69.179 Y95.239 E3.5939
G1 X69.162 Y95.218 E3.5953
G1 X68.935 Y94.906 E3.6145
G1 X68.920 Y94.883 E3.6159
G1 X68.469 Y94.129 E3.6598
G1 X68.456 Y94.105 E3.6611
G1 X68.288 Y93.757 E3.6804
G1 X68.278 Y93.732 E3.6817
G1 X67.969 Y92.908 E3.7256
G1 X67.961 Y92.883 E3.7269
G1 X67.858 Y92.510 E3.7462
G1 X67.852 Y92.484 E3.7476
G1 X67.695 Y91.619 E3.7914
G1 X67.691 Y91.592 E3.7928
G1 X67.657 Y91.208 E3.8120
G1 X67.656 Y91.181 E3.8134
G1 X67.656 Y90.302 E3.8572
G1 X67.657 Y90.275 E3.8586
G1 X67.691 Y89.891 E3.8778
G1 X67.695 Y89.864 E3.8792
G1 X67.852 Y88.999 E3.9230
G1 X67.858 Y88.973 E3.9244
G1 X67.961 Y88.600 E3.9436
G1 X67.969 Y88.575 E3.9450
G1 X68.278 Y87.751 E3.9889
G1 X68.288 Y87.727 E3.9902
G1 X68.456 Y87.378 E4.0095
G1 X68.469 Y87.355 E4.0108
G1 X68.920 Y86.600 E4.0547
G1 X68.935 Y86.577 E4.0560
G1 X69.162 Y86.265 E4.0753
G1 X69.179 Y86.244 E4.0766
G1 X69.757 Y85.582 E4.1205
G1 X69.776 Y85.563 E4.1218
G1 X69.847 Y85.494 E4.1268
G1 X69.776 Y85.426 E4.1317
G1 X69.757 Y85.407 E4.1330
G1 X69.179 Y84.745 E4.1769
G1 X69.162 Y84.724 E4.1782
G1 X68.935 Y84.411 E4.1975
G1 X68.920 Y84.389 E4.1988
G1 X68.469 Y83.634 E4.2427
G1 X68.456 Y83.610 E4.2440
G1 X68.288 Y83.262 E4.2633
G1 X68.278 Y83.237 E4.2647
G1 X67.969 Y82.414 E4.3085
G1 X67.961 Y82.388 E4.3099
G1 X67.858 Y82.016 E4.3292
G1 X67.852 Y81.990 E4.3305
G1 X67.695 Y81.125 E4.3744
G1 X67.691 Y81.098 E4.3757
G1 X67.657 Y80.714 E4.3950
G1 X67.656 Y80.687 E4.3963
G1 X67.656 Y79.808 E4.4402
G1 X67.657 Y79.781 E4.4415
G1 X67.691 Y79.396 E4.4608
G1 X67.695 Y79.370 E4.4621
G1 X67.852 Y78.505 E4.5060
G1 X67.858 Y78.478 E4.5073
G1 X67.961 Y78.106 E4.5266
G1 X67.969 Y78.080 E4.5279
G1 X68.278 Y77.257 E4.5718
G1 X68.288 Y77.232 E4.5731
G1 X68.456 Y76.884 E4.5924
G1 X68.469 Y76.860 E4.5938
G1 X68.920 Y76.105 E4.6376
G1 X68.935 Y76.083 E4.6390
G1 X69.162 Y75.771 E4.6583
G1 X69.179 Y75.750 E4.6596
G1 X69.757 Y75.088 E4.7035
G1 X69.776 Y75.068 E4.7048
G1 X69.847 Y75.000 E4.7097
G1 X69.776 Y74.932 E4.7146
G1 X69.757 Y74.912 E4.7160
G1 X69.179 Y74.250 E4.7598
G1 X69.162 Y74.229 E4.7612
G1 X68.935 Y73.917 E4.7804
G1 X68.920 Y73.895 E4.7818
G1 X68.469 Y73.140 E4.8257
G1 X68.456 Y73.116 E4.8270
G1 X68.288 Y72.768 E4.8463
G1 X68.278 Y72.743 E4.8476
G1 X67.969 Y71.920 E4.8915
G1 X67.961 Y71.894 E4.8928
G1 X67.858 Y71.522 E4.9121
G1 X67.852 Y71.495 E4.9135
G1 X67.695 Y70.630 E4.9573
G1 X67.691 Y70.604 E4.9587
G1 X67.657 Y70.219 E4.9779
G1 X67.656 Y70.192 E4.9793
G1 X67.656 Y69.313 E5.0231
G1 X67.657 Y69.286 E5.0245
G1 X67.691 Y68.902 E5.0437
G1 X67.695 Y68.875 E5.0451
G1 X67.852 Y68.010 E5.0889
G1 X67.858 Y67.984 E5.0903
G1 X67.961 Y67.612 E5.1095
G1 X67.969 Y67.586 E5.1109
G1 X68.278 Y66.763 E5.1548
G1 X68.288 Y66.738 E5.1561
G1 X68.456 Y66.390 E5.1754
G1 X68.469 Y66.366 E5.1767
G1 X68.920 Y65.611 E5.2206
G1 X68.935 Y65.589 E5.2219
G1 X69.162 Y65.276 E5.2412
G1 X69.179 Y65.255 E5.2425
G1 X69.757 Y64.593 E5.2864
G1 X69.776 Y64.574 E5.2877
G1 X69.847 Y64.506 E5.2927
G1 X69.776 Y64.437 E5.2976
G1 X69.757 Y64.418 E5.2989
G1 X69.179 Y63.756 E5.3428
G1 X69.162 Y63.735 E5.3441
G1 X68.935 Y63.423 E5.3634
G1 X68.920 Y63.400 E5.3647
G1 X68.469 Y62.645 E5.4086
G1 X68.456 Y62.622 E5.4099
G1 X68.288 Y62.273 E5.4292
G1 X68.278 Y62.249 E5.4306
G1 X67.969 Y61.425 E5.4744
G1 X67.961 Y61.400 E5.4758
G1 X67.858 Y61.027 E5.4951
G1 X67.852 Y61.001 E5.4964
G1 X67.695 Y60.136 E5.5403
G1 X67.691 Y60.109 E5.5416
G1 X67.657 Y59.725 E5.5609
G1 X67.656 Y59.698 E5.5622
G1 X67.656 Y58.819 E5.6061
G1 X67.657 Y58.792 E5.6074
G1 X67.691 Y58.408 E5.6267
G1 X67.695 Y58.381 E5.6280
G1 X67.852 Y57.516 E5.6719
G1 X67.858 Y57.490 E5.6732
G1 X67.961 Y57.117 E5.6925
G1 X67.969 Y57.092 E5.6938
G1 X68.278 Y56.268 E5.7377
G1 X68.288 Y56.243 E5.7391
G1 X68.456 Y55.895 E5.7583
G1 X68.469 Y55.871 E5.7597
G1 X68.920 Y55.117 E5.8035
G1 X68.935 Y55.094 E5.8049
G1 X69.264 Y55.322 F3600
G92 E0
G1 X69.480 Y55.024 E0.0184 F918
G1 X69.486 Y55.017 E0.0188
G1 X70.052 Y54.369 E0.0618
G1 X70.058 Y54.362 E0.0622
G1 X70.325 Y54.108 E0.0806
G1 X70.331 Y54.102 E0.0810
G1 X71.005 Y53.565 E0.1240
G1 X71.012 Y53.560 E0.1245
G1 X71.319 Y53.357 E0.1428
G1 X71.327 Y53.352 E0.1433
G1 X72.086 Y52.944 E0.1863
G1 X72.094 Y52.940 E0.1867
G1 X72.432 Y52.795 E0.2051
G1 X72.441 Y52.792 E0.2055
G1 X73.260 Y52.526 E0.2485
G1 X73.268 Y52.524 E0.2489
G1 X73.628 Y52.442 E0.2673
G1 X73.637 Y52.440 E0.2678
G1 X74.490 Y52.324 E0.3107
G1 X74.499 Y52.324 E0.3112
G1 X74.867 Y52.307 E0.3296
G1 X74.876 Y52.307 E0.3300
G1 X75.736 Y52.346 E0.3730
G1 X75.745 Y52.347 E0.3734
G1 X76.110 Y52.396 E0.3918
G1 X76.118 Y52.398 E0.3922
G1 X76.958 Y52.589 E0.4352
G1 X76.967 Y52.592 E0.4356
G1 X77.317 Y52.706 E0.4540
