; G-Code generated by Simplify3D(R) Version 2.2.2
; Oct 11, 2015 at 12:03:58 PM
; Settings Summary
;   processName,Process1
;   applyToModels,spacer-base-spkr-26
;   profileLabel,Printrbot Simple Metal
;   printMaterial,PLA
;   printQuality,Fast
;   extruderName,Primary Extruder
;   extruderToolheadNumber,0
;   extruderDiameter,0
;   extruderAutoWidth,0
;   extruderWidth,0.4
;   extrusionMultiplier,1
;   extruderUseRetract,1
;   extruderRetractionDistance,1
;   extruderExtraRestartDistance,0
;   extruderRetractionZLift,0
;   extruderRetractionSpeed,1800
;   extruderUseCoasting,1
;   extruderCoastingDistance,0.2
;   extruderUseWipe,1
;   extruderWipeDistance,5
;   primaryExtruder,0
;   layerHeight,0.3
;   topSolidLayers,3
;   bottomSolidLayers,3
;   perimeterOutlines,2
;   printPerimetersInsideOut,1
;   startPointOption,2
;   startPointOriginX,0
;   startPointOriginY,0
;   startPointOriginZ,300
;   sequentialIslands,0
;   spiralVaseMode,0
;   firstLayerHeightPercentage,90
;   firstLayerWidthPercentage,100
;   firstLayerUnderspeed,0.5
;   useRaft,0
;   raftExtruder,0
;   raftLayers,3
;   raftOffset,3
;   raftSeparationDistance,0.14
;   raftInfill,85
;   disableRaftBaseLayers,0
;   useSkirt,1
;   skirtExtruder,0
;   skirtLayers,1
;   skirtOutlines,2
;   skirtOffset,4
;   infillExtruder,0
;   externalInfillPattern,Rectilinear
;   infillPercentage,10
;   outlineOverlapPercentage,15
;   infillExtrusionWidthPercentage,100
;   minInfillLength,5
;   infillLayerInterval,1
;   randomInfillStartPoint,0
;   infillAngles,45,-45
;   generateSupport,0
;   supportExtruder,0
;   supportInfill,25
;   supportExtraInflation,0
;   denseSupportLayers,0
;   denseSupportInfill,70
;   supportLayerInterval,1
;   supportHorizontalPartOffset,0.3
;   supportUpperSeparationLayers,1
;   supportLowerSeparationLayers,1
;   supportGridSpacing,4
;   maxOverhangAngle,45
;   supportAngles,0
;   temperatureName,Primary Extruder,Heated Bed
;   temperatureNumber,0,1
;   temperatureSetpointCount,1,1
;   temperatureSetpointLayers,1,1
;   temperatureSetpointTemperatures,220,100
;   temperatureStabilizeAtStartup,1,1
;   temperatureHeatedBed,0,1
;   temperatureRelayBetweenLayers,0,0
;   temperatureRelayBetweenLoops,0,0
;   fanLayers,1,2
;   fanSpeeds,0,100
;   blipFanToFullPower,1
;   adjustSpeedForCooling,1
;   minSpeedLayerTime,15
;   minCoolingSpeedSlowdown,20
;   increaseFanForCooling,0
;   minFanLayerTime,45
;   maxCoolingFanSpeed,100
;   increaseFanForBridging,0
;   bridgingFanSpeed,100
;   use5D,1
;   relativeEdistances,0
;   allowEaxisZeroing,1
;   independentExtruderAxes,0
;   includeM10123,0
;   stickySupport,1
;   detectArcs,0
;   arcReplaceG2G3,0
;   arcRadialCompensation,1
;   gcodeXoffset,0
;   gcodeYoffset,0
;   gcodeZoffset,0
;   overrideMachineDefinition,1
;   machineTypeOverride,0
;   strokeXoverride,150
;   strokeYoverride,150
;   strokeZoverride,150
;   originOffsetXoverride,0
;   originOffsetYoverride,0
;   originOffsetZoverride,0
;   homeXdirOverride,-1
;   homeYdirOverride,-1
;   homeZdirOverride,-1
;   flipXoverride,1
;   flipYoverride,-1
;   flipZoverride,1
;   startingGcode,G28 X0 Y0 ; home X and Y axes, G29 ; probe Z
;   layerChangeGcode,
;   toolChangeGcode,
;   endingGcode,M104 S0 T0 ; turn off extruder,M140 S0 T1 ; turn off bed,G28 X0 ; home X axis,M84 ; disable motors
;   createX3G,0
;   celebration,0
;   celebrationSong,Random Song
;   createMB5G,0
;   postProcessing,
;   defaultSpeed,3000
;   outlineUnderspeed,0.5
;   solidInfillUnderspeed,0.8
;   supportUnderspeed,0.8
;   rapidXYspeed,3600
;   rapidZspeed,1000
;   minBridgingArea,50
;   bridgingExtrusionMultiplier,1
;   bridgingSpeedMultiplier,1
;   filamentDiameter,1.75
;   filamentPricePerKg,46
;   useMinPrintHeight,0
;   minPrintHeight,0
;   useMaxPrintHeight,0
;   maxPrintHeight,0
;   useDiaphragm,0
;   diaphragmLayerInterval,20
;   robustSlicing,1
;   mergeAllIntoSolid,0
;   onlyRetractWhenCrossingOutline,1
;   retractBetweenLayers,1
;   useRetractionMinTravel,0
;   retractionMinTravel,3
;   useRetractionOozeRate,0
;   retractionOozeRate,100
;   onlyWipeOutlines,1
;   toolChangeRetractionDistance,12
;   toolChangeExtraRestartDistance,-0.5
;   toolChangeRetractionSpeed,600
;   allowThinWallGapFill,1
;   thinWallAllowedOverlapPercentage,10
;   horizontalSizeCompensation,0
G90
M82
M127
M140 S100 T0
M134 T0
M104 S220 T0
M133 T0
G28 X0 Y0 ; home X and Y axes
 G29 ; probe Z
G92 E0
G1 E-1 F1800
G1 Z0.27 F1000
; layer 1, Z = 0.27
M135 T0
; tool H0.3 W0.4
G1 X68.906 Y68.928 F3600
G1 E0 F540
G92 E0
G1 X68.918 Y68.914 E0.0009 F600
G1 X69.109 Y68.73 E0.0141
G1 X69.122 Y68.718 E0.015
G1 X69.698 Y68.225 E0.0528
G1 X69.712 Y68.214 E0.0537
G1 X69.924 Y68.054 E0.067
G1 X69.939 Y68.043 E0.0679
G1 X70.571 Y67.625 E0.1057
G1 X70.586 Y67.616 E0.1066
G1 X70.816 Y67.483 E0.1198
G1 X70.832 Y67.475 E0.1208
G1 X71.51 Y67.137 E0.1586
G1 X71.527 Y67.13 E0.1595
G1 X71.771 Y67.027 E0.1727
G1 X71.788 Y67.02 E0.1736
G1 X72.502 Y66.769 E0.2114
G1 X72.52 Y66.763 E0.2123
G1 X72.775 Y66.691 E0.2255
G1 X72.793 Y66.686 E0.2264
G1 X73.533 Y66.525 E0.2642
G1 X73.551 Y66.521 E0.2652
G1 X73.814 Y66.481 E0.2784
G1 X73.832 Y66.479 E0.2793
G1 X74.586 Y66.409 E0.3171
G1 X74.604 Y66.408 E0.318
G1 X74.867 Y66.4 E0.3311
G1 X74.886 Y66.4 E0.3321
G1 X75.64 Y66.423 E0.3697
G1 X75.659 Y66.425 E0.3706
G1 X75.924 Y66.449 E0.3839
G1 X75.942 Y66.451 E0.3848
G1 X76.694 Y66.569 E0.4228
G1 X76.712 Y66.572 E0.4237
G1 X76.971 Y66.629 E0.4369
G1 X76.989 Y66.633 E0.4379
G1 X77.717 Y66.841 E0.4756
G1 X77.735 Y66.847 E0.4766
G1 X77.984 Y66.935 E0.4898
G1 X78.001 Y66.941 E0.4907
G1 X78.699 Y67.237 E0.5285
G1 X78.715 Y67.245 E0.5294
G1 X78.953 Y67.363 E0.5427
G1 X78.969 Y67.372 E0.5436
G1 X79.625 Y67.751 E0.5814
G1 X79.641 Y67.761 E0.5823
G1 X79.862 Y67.908 E0.5955
G1 X79.877 Y67.918 E0.5964
G1 X80.48 Y68.375 E0.6342
G1 X80.495 Y68.386 E0.6351
G1 X80.695 Y68.558 E0.6482
G1 X80.708 Y68.57 E0.6492
G1 X81.249 Y69.095 E0.6868
G1 X81.262 Y69.108 E0.6877
G1 X81.441 Y69.304 E0.7009
G1 X81.453 Y69.318 E0.7018
G1 X81.928 Y69.908 E0.7396
G1 X81.939 Y69.923 E0.7406
G1 X82.092 Y70.139 E0.7538
G1 X82.102 Y70.155 E0.7547
G1 X82.501 Y70.799 E0.7925
G1 X82.51 Y70.815 E0.7934
G1 X82.635 Y71.048 E0.8066
G1 X82.644 Y71.064 E0.8075
G1 X82.96 Y71.752 E0.8453
G1 X82.967 Y71.769 E0.8462
G1 X83.063 Y72.017 E0.8595
G1 X83.069 Y72.034 E0.8604
G1 X83.299 Y72.756 E0.8982
G1 X83.304 Y72.774 E0.8991
G1 X83.369 Y73.031 E0.9123
G1 X83.373 Y73.049 E0.9132
G1 X83.512 Y73.793 E0.951
G1 X83.515 Y73.812 E0.952
G1 X83.547 Y74.075 E0.9652
G1 X83.549 Y74.093 E0.9661
G1 X83.596 Y74.849 E1.0039
G1 X83.596 Y74.868 E1.0048
G1 X83.596 Y75.132 E1.018
G1 X83.596 Y75.151 E1.019
G1 X83.549 Y75.907 E1.0567
G1 X83.547 Y75.925 E1.0577
G1 X83.515 Y76.188 E1.0709
G1 X83.512 Y76.207 E1.0718
G1 X83.373 Y76.951 E1.1096
G1 X83.369 Y76.969 E1.1105
G1 X83.304 Y77.226 E1.1237
G1 X83.299 Y77.244 E1.1247
G1 X83.069 Y77.966 E1.1625
G1 X83.063 Y77.983 E1.1634
G1 X82.967 Y78.231 E1.1766
G1 X82.96 Y78.248 E1.1775
G1 X82.644 Y78.936 E1.2153
G1 X82.635 Y78.952 E1.2162
G1 X82.51 Y79.185 E1.2294
G1 X82.501 Y79.201 E1.2304
G1 X82.102 Y79.846 E1.2682
G1 X82.092 Y79.861 E1.2691
G1 X81.938 Y80.079 E1.2824
G1 X81.926 Y80.094 E1.2833
G1 X81.449 Y80.686 E1.3213
G1 X81.437 Y80.7 E1.3222
G1 X81.259 Y80.896 E1.3354
G1 X81.246 Y80.909 E1.3363
G1 X80.702 Y81.436 E1.3741
G1 X80.688 Y81.448 E1.375
G1 X80.487 Y81.62 E1.3883
G1 X80.472 Y81.632 E1.3892
G1 X79.868 Y82.088 E1.427
G1 X79.853 Y82.099 E1.4279
G1 X79.632 Y82.245 E1.4411
G1 X79.616 Y82.254 E1.442
G1 X78.96 Y82.633 E1.4798
G1 X78.943 Y82.642 E1.4807
G1 X78.706 Y82.76 E1.494
G1 X78.689 Y82.768 E1.4949
G1 X77.991 Y83.062 E1.5327
G1 X77.974 Y83.069 E1.5336
G1 X77.724 Y83.157 E1.5468
G1 X77.706 Y83.162 E1.5478
G1 X76.978 Y83.369 E1.5855
G1 X76.96 Y83.374 E1.5865
G1 X76.701 Y83.43 E1.5997
G1 X76.683 Y83.434 E1.6006
G1 X75.934 Y83.549 E1.6384
G1 X75.916 Y83.551 E1.6393
G1 X75.653 Y83.576 E1.6525
G1 X75.634 Y83.577 E1.6534
G1 X74.877 Y83.6 E1.6912
G1 X74.859 Y83.6 E1.6921
G1 X74.594 Y83.591 E1.7054
G1 X74.575 Y83.59 E1.7063
G1 X73.821 Y83.52 E1.7441
G1 X73.803 Y83.518 E1.745
G1 X73.541 Y83.477 E1.7582
G1 X73.522 Y83.473 E1.7592
G1 X72.782 Y83.311 E1.797
G1 X72.764 Y83.306 E1.7979
G1 X72.51 Y83.234 E1.8111
G1 X72.492 Y83.228 E1.812
G1 X71.778 Y82.976 E1.8498
G1 X71.761 Y82.969 E1.8507
G1 X71.517 Y82.866 E1.8639
G1 X71.5 Y82.858 E1.8648
G1 X70.823 Y82.52 E1.9026
G1 X70.806 Y82.511 E1.9036
G1 X70.577 Y82.379 E1.9168
G1 X70.561 Y82.369 E1.9177
G1 X69.931 Y81.95 E1.9555
G1 X69.916 Y81.94 E1.9564
G1 X69.705 Y81.781 E1.9695
G1 X69.691 Y81.769 E1.9705
G1 X69.118 Y81.278 E2.0081
G1 X69.104 Y81.266 E2.009
G1 X68.915 Y81.082 E2.0222
G1 X68.902 Y81.069 E2.0231
G1 X68.391 Y80.509 E2.0609
G1 X68.379 Y80.495 E2.0618
G1 X68.213 Y80.289 E2.0751
G1 X68.202 Y80.274 E2.076
G1 X67.764 Y79.655 E2.1138
G1 X67.754 Y79.64 E2.1147
G1 X67.615 Y79.415 E2.1279
G1 X67.605 Y79.399 E2.1288
G1 X67.247 Y78.731 E2.1666
G1 X67.239 Y78.715 E2.1676
G1 X67.128 Y78.474 E2.1808
G1 X67.121 Y78.457 E2.1817
G1 X66.847 Y77.751 E2.2195
G1 X66.841 Y77.733 E2.2204
G1 X66.761 Y77.481 E2.2336
G1 X66.756 Y77.463 E2.2346
G1 X66.571 Y76.728 E2.2723
G1 X66.567 Y76.71 E2.2733
G1 X66.518 Y76.45 E2.2865
G1 X66.515 Y76.432 E2.2874
G1 X66.422 Y75.68 E2.3252
G1 X66.421 Y75.662 E2.3261
G1 X66.404 Y75.397 E2.3393
G1 X66.404 Y75.379 E2.3403
G1 X66.404 Y74.621 E2.378
G1 X66.404 Y74.603 E2.379
G1 X66.421 Y74.338 E2.3922
G1 X66.422 Y74.32 E2.3931
G1 X66.515 Y73.568 E2.4309
G1 X66.518 Y73.55 E2.4318
G1 X66.567 Y73.29 E2.445
G1 X66.571 Y73.272 E2.4459
G1 X66.756 Y72.537 E2.4837
G1 X66.761 Y72.519 E2.4847
G1 X66.841 Y72.267 E2.4979
G1 X66.847 Y72.249 E2.4988
G1 X67.121 Y71.543 E2.5366
G1 X67.128 Y71.526 E2.5375
G1 X67.239 Y71.285 E2.5507
G1 X67.247 Y71.269 E2.5517
G1 X67.605 Y70.601 E2.5894
G1 X67.615 Y70.585 E2.5904
G1 X67.754 Y70.36 E2.6036
G1 X67.764 Y70.345 E2.6045
G1 X68.202 Y69.726 E2.6423
G1 X68.214 Y69.711 E2.6433
G1 X68.381 Y69.503 E2.6566
G1 X68.393 Y69.489 E2.6575
G1 X68.771 Y69.075 E2.6855
G1 X68.906 Y68.928 F600
G1 X69.197 Y69.202 F3600
G92 E0
G1 X69.201 Y69.197 E0.0003 F600
G1 X69.382 Y69.022 E0.0129
G1 X69.387 Y69.018 E0.0132
G1 X69.953 Y68.533 E0.0504
G1 X69.958 Y68.529 E0.0507
G1 X70.16 Y68.377 E0.0633
G1 X70.165 Y68.374 E0.0636
G1 X70.786 Y67.962 E0.1008
G1 X70.792 Y67.959 E0.1011
G1 X71.01 Y67.833 E0.1137
G1 X71.016 Y67.83 E0.114
G1 X71.683 Y67.498 E0.1512
G1 X71.689 Y67.496 E0.1515
G1 X71.921 Y67.398 E0.1641
G1 X71.927 Y67.395 E0.1644
G1 X72.629 Y67.148 E0.2015
G1 X72.635 Y67.146 E0.2018
G1 X72.878 Y67.077 E0.2145
G1 X72.884 Y67.076 E0.2148
G1 X73.613 Y66.917 E0.2519
G1 X73.619 Y66.916 E0.2523
G1 X73.869 Y66.877 E0.2649
G1 X73.875 Y66.876 E0.2652
G1 X74.616 Y66.808 E0.3023
G1 X74.622 Y66.808 E0.3026
G1 X74.874 Y66.8 E0.3152
G1 X74.88 Y66.8 E0.3155
G1 X75.622 Y66.823 E0.3525
G1 X75.628 Y66.823 E0.3528
G1 X75.88 Y66.847 E0.3655
G1 X75.887 Y66.848 E0.3658
G1 X76.626 Y66.963 E0.4031
G1 X76.632 Y66.964 E0.4034
G1 X76.879 Y67.018 E0.416
G1 X76.885 Y67.02 E0.4163
G1 X77.601 Y67.224 E0.4535
G1 X77.607 Y67.226 E0.4538
G1 X77.845 Y67.31 E0.4664
G1 X77.851 Y67.312 E0.4667
G1 X78.537 Y67.603 E0.5039
G1 X78.542 Y67.606 E0.5042
G1 X78.769 Y67.719 E0.5168
G1 X78.774 Y67.721 E0.5171
G1 X79.42 Y68.095 E0.5543
G1 X79.425 Y68.098 E0.5546
G1 X79.635 Y68.237 E0.5672
G1 X79.64 Y68.241 E0.5675
G1 X80.234 Y68.69 E0.6047
G1 X80.239 Y68.694 E0.605
G1 X80.43 Y68.857 E0.6175
G1 X80.434 Y68.862 E0.6178
G1 X80.967 Y69.378 E0.6548
G1 X80.971 Y69.382 E0.6551
G1 X81.141 Y69.569 E0.6677
G1 X81.145 Y69.574 E0.668
G1 X81.612 Y70.154 E0.7052
G1 X81.616 Y70.159 E0.7055
G1 X81.762 Y70.366 E0.7181
G1 X81.766 Y70.371 E0.7185
G1 X82.158 Y71.004 E0.7556
G1 X82.161 Y71.009 E0.7559
G1 X82.28 Y71.232 E0.7685
G1 X82.283 Y71.237 E0.7688
G1 X82.594 Y71.914 E0.806
G1 X82.597 Y71.92 E0.8063
G1 X82.688 Y72.155 E0.8189
G1 X82.69 Y72.161 E0.8192
G1 X82.916 Y72.871 E0.8564
G1 X82.918 Y72.877 E0.8567
G1 X82.979 Y73.122 E0.8693
G1 X82.981 Y73.128 E0.8696
G1 X83.118 Y73.861 E0.9068
G1 X83.119 Y73.867 E0.9071
G1 X83.15 Y74.118 E0.9197
G1 X83.15 Y74.124 E0.92
G1 X83.196 Y74.868 E0.9572
G1 X83.196 Y74.874 E0.9575
G1 X83.196 Y75.126 E0.9701
G1 X83.196 Y75.132 E0.9704
G1 X83.15 Y75.876 E1.0076
G1 X83.15 Y75.882 E1.0079
G1 X83.119 Y76.133 E1.0205
G1 X83.118 Y76.139 E1.0208
G1 X82.981 Y76.872 E1.058
G1 X82.979 Y76.878 E1.0583
G1 X82.918 Y77.123 E1.0709
G1 X82.916 Y77.129 E1.0712
G1 X82.69 Y77.839 E1.1084
G1 X82.688 Y77.845 E1.1087
G1 X82.597 Y78.08 E1.1213
G1 X82.594 Y78.086 E1.1216
G1 X82.283 Y78.763 E1.1588
G1 X82.28 Y78.768 E1.1591
G1 X82.161 Y78.991 E1.1717
G1 X82.158 Y78.996 E1.172
G1 X81.765 Y79.63 E1.2092
G1 X81.762 Y79.635 E1.2095
G1 X81.615 Y79.842 E1.2222
G1 X81.611 Y79.847 E1.2225
G1 X81.141 Y80.43 E1.2598
G1 X81.137 Y80.435 E1.2601
G1 X80.967 Y80.621 E1.2727
G1 X80.963 Y80.626 E1.273
G1 X80.428 Y81.144 E1.3102
G1 X80.423 Y81.148 E1.3105
G1 X80.231 Y81.312 E1.3231
G1 X80.227 Y81.316 E1.3234
G1 X79.632 Y81.765 E1.3606
G1 X79.627 Y81.768 E1.3609
G1 X79.416 Y81.908 E1.3735
G1 X79.411 Y81.911 E1.3738
G1 X78.765 Y82.283 E1.411
G1 X78.76 Y82.286 E1.4113
G1 X78.533 Y82.399 E1.4239
G1 X78.527 Y82.402 E1.4242
G1 X77.841 Y82.692 E1.4614
G1 X77.835 Y82.694 E1.4617
G1 X77.597 Y82.777 E1.4743
G1 X77.591 Y82.779 E1.4746
G1 X76.875 Y82.983 E1.5118
G1 X76.869 Y82.984 E1.5121
G1 X76.622 Y83.038 E1.5247
G1 X76.616 Y83.039 E1.525
G1 X75.879 Y83.153 E1.5622
G1 X75.873 Y83.154 E1.5625
G1 X75.622 Y83.177 E1.5751
G1 X75.616 Y83.177 E1.5754
G1 X74.871 Y83.2 E1.6125
G1 X74.865 Y83.2 E1.6128
G1 X74.613 Y83.192 E1.6255
G1 X74.606 Y83.191 E1.6258
G1 X73.864 Y83.122 E1.6629
G1 X73.858 Y83.122 E1.6633
G1 X73.608 Y83.083 E1.6759
G1 X73.602 Y83.081 E1.6762
G1 X72.874 Y82.921 E1.7134
G1 X72.868 Y82.92 E1.7137
G1 X72.625 Y82.851 E1.7263
G1 X72.619 Y82.849 E1.7266
G1 X71.917 Y82.601 E1.7637
G1 X71.911 Y82.598 E1.7641
G1 X71.679 Y82.5 E1.7766
G1 X71.673 Y82.497 E1.7769
G1 X71.007 Y82.165 E1.8141
G1 X71.001 Y82.162 E1.8144
G1 X70.783 Y82.036 E1.827
G1 X70.777 Y82.032 E1.8273
G1 X70.157 Y81.621 E1.8645
G1 X70.152 Y81.617 E1.8648
G1 X69.951 Y81.465 E1.8774
G1 X69.946 Y81.461 E1.8777
G1 X69.383 Y80.979 E1.9147
G1 X69.378 Y80.975 E1.915
G1 X69.197 Y80.799 E1.9276
G1 X69.193 Y80.795 E1.9279
G1 X68.691 Y80.244 E1.965
G1 X68.687 Y80.239 E1.9653
G1 X68.529 Y80.043 E1.9779
G1 X68.525 Y80.038 E1.9783
G1 X68.094 Y79.429 E2.0154
G1 X68.091 Y79.424 E2.0157
G1 X67.958 Y79.209 E2.0284
G1 X67.955 Y79.204 E2.0287
G1 X67.602 Y78.547 E2.0658
G1 X67.6 Y78.542 E2.0661
G1 X67.494 Y78.312 E2.0787
G1 X67.492 Y78.307 E2.0791
G1 X67.222 Y77.612 E2.1162
G1 X67.22 Y77.606 E2.1165
G1 X67.144 Y77.365 E2.1291
G1 X67.142 Y77.359 E2.1295
G1 X66.96 Y76.637 E2.1666
G1 X66.959 Y76.631 E2.1669
G1 X66.913 Y76.382 E2.1795
G1 X66.912 Y76.376 E2.1798
G1 X66.82 Y75.637 E2.217
G1 X66.82 Y75.631 E2.2173
G1 X66.804 Y75.379 E2.2299
G1 X66.804 Y75.373 E2.2302
G1 X66.804 Y74.627 E2.2674
G1 X66.804 Y74.621 E2.2677
G1 X66.82 Y74.369 E2.2803
G1 X66.82 Y74.363 E2.2806
G1 X66.912 Y73.624 E2.3178
G1 X66.913 Y73.618 E2.3181
G1 X66.959 Y73.369 E2.3307
G1 X66.96 Y73.363 E2.331
G1 X67.142 Y72.641 E2.3682
G1 X67.144 Y72.635 E2.3685
G1 X67.22 Y72.394 E2.3811
G1 X67.222 Y72.388 E2.3814
G1 X67.492 Y71.693 E2.4186
G1 X67.494 Y71.687 E2.4189
G1 X67.6 Y71.458 E2.4315
G1 X67.602 Y71.453 E2.4318
G1 X67.955 Y70.796 E2.469
G1 X67.958 Y70.791 E2.4693
G1 X68.091 Y70.576 E2.4819
G1 X68.094 Y70.571 E2.4822
G1 X68.525 Y69.962 E2.5194
G1 X68.529 Y69.957 E2.5197
G1 X68.688 Y69.759 E2.5324
G1 X68.692 Y69.754 E2.5327
G1 X69.062 Y69.35 E2.5601
G1 X69.197 Y69.202 F600
G92 E0
G1 E-1 F1800
G1 X72.353 Y72.271 F3600
G1 E0 F1800
G92 E0
G1 X72.709 Y71.966 E0.0233 F300
G1 X73.099 Y71.708 E0.0467
G1 X73.517 Y71.5 E0.07
G1 X73.959 Y71.345 E0.0934
G1 X74.416 Y71.245 E0.1167
G1 X74.882 Y71.202 E0.14
G1 X75.347 Y71.217 E0.1632
G1 X75.811 Y71.289 E0.1867
G1 X76.261 Y71.417 E0.21
G1 X76.692 Y71.6 E0.2334
G1 X77.097 Y71.834 E0.2567
G1 X77.47 Y72.116 E0.2801
G1 X77.804 Y72.44 E0.3033
G1 X78.097 Y72.805 E0.3266
G1 X78.344 Y73.202 E0.35
G1 X78.539 Y73.627 E0.3733
