; G-Code generated by Simplify3D(R) Version 2.2.2
; May 22, 2015 at 9:23:32 AM
; Settings Summary
;   processName,Process1
;   applyToModels,rpiaplus-base-offsetx
;   profileLabel,MakerBot Replicator 2
;   printMaterial,PLA
;   printQuality,Medium
;   extruderName,Primary Extruder
;   extruderToolheadNumber,0
;   extruderDiameter,0.4
;   extruderAutoWidth,0
;   extruderWidth,0.4
;   extrusionMultiplier,0.9
;   extruderUseRetract,1
;   extruderRetractionDistance,1
;   extruderExtraRestartDistance,0
;   extruderRetractionZLift,0
;   extruderRetractionSpeed,1200
;   extruderUseCoasting,1
;   extruderCoastingDistance,0.2
;   extruderUseWipe,1
;   extruderWipeDistance,5
;   primaryExtruder,0
;   layerHeight,0.2
;   topSolidLayers,3
;   bottomSolidLayers,3
;   perimeterOutlines,2
;   printPerimetersInsideOut,1
;   startPointOption,2
;   startPointOriginX,0
;   startPointOriginY,0
;   startPointOriginZ,300
;   sequentialIslands,0
;   spiralVaseMode,0
;   firstLayerHeightPercentage,90
;   firstLayerWidthPercentage,100
;   firstLayerUnderspeed,0.5
;   useRaft,0
;   raftExtruder,0
;   raftLayers,3
;   raftOffset,3
;   raftSeparationDistance,0.14
;   raftInfill,85
;   disableRaftBaseLayers,0
;   useSkirt,1
;   skirtExtruder,0
;   skirtLayers,1
;   skirtOutlines,2
;   skirtOffset,4
;   infillExtruder,0
;   externalInfillPattern,Rectilinear
;   infillPercentage,10
;   outlineOverlapPercentage,50
;   infillExtrusionWidthPercentage,100
;   minInfillLength,5
;   infillLayerInterval,1
;   randomInfillStartPoint,0
;   infillAngles,45,-45
;   generateSupport,0
;   supportExtruder,0
;   supportInfill,30
;   supportExtraInflation,0
;   denseSupportLayers,0
;   denseSupportInfill,70
;   supportLayerInterval,1
;   supportHorizontalPartOffset,0.3
;   supportUpperSeparationLayers,1
;   supportLowerSeparationLayers,1
;   supportGridSpacing,4
;   maxOverhangAngle,45
;   supportAngles,0
;   temperatureName,Primary Extruder
;   temperatureNumber,0
;   temperatureSetpointCount,1
;   temperatureSetpointLayers,1
;   temperatureSetpointTemperatures,230
;   temperatureStabilizeAtStartup,0
;   temperatureHeatedBed,0
;   temperatureRelayBetweenLayers,0
;   temperatureRelayBetweenLoops,0
;   fanLayers,1,2
;   fanSpeeds,0,100
;   blipFanToFullPower,0
;   adjustSpeedForCooling,1
;   minSpeedLayerTime,15
;   minCoolingSpeedSlowdown,20
;   increaseFanForCooling,0
;   minFanLayerTime,45
;   maxCoolingFanSpeed,100
;   increaseFanForBridging,0
;   bridgingFanSpeed,100
;   use5D,1
;   relativeEdistances,1
;   allowEaxisZeroing,0
;   independentExtruderAxes,1
;   includeM10123,0
;   stickySupport,1
;   detectArcs,0
;   arcReplaceG2G3,0
;   arcRadialCompensation,1
;   gcodeXoffset,0
;   gcodeYoffset,0
;   gcodeZoffset,0
;   overrideMachineDefinition,1
;   machineTypeOverride,0
;   strokeXoverride,280
;   strokeYoverride,150
;   strokeZoverride,150
;   originOffsetXoverride,140
;   originOffsetYoverride,75
;   originOffsetZoverride,0
;   homeXdirOverride,1
;   homeYdirOverride,1
;   homeZdirOverride,-1
;   flipXoverride,1
;   flipYoverride,-1
;   flipZoverride,1
;   startingGcode,; **** Replicator 2 start.gcode ****,M73 P0 ; enable build progress,G162 X Y F3000 ; home XY maximum,G161 Z F1200 ; home Z minimum,G92 Z-5 ; set Z to -5,G1 Z0 ; move Z to 0,G161 Z F100 ; home Z slowly,M132 X Y Z A B ; recall home offsets,G1 X-145 Y-75 Z30 F9000 ; move to wait position off table,G130 X20 Y20 Z20 A20 B20 ; lower stepper Vrefs while heating,M126 S[fan_speed_pwm],M104 S[extruder0_temperature] T0,M133 T0 ; stabilize extruder temperature,G130 X127 Y127 Z40 A127 B127 ; default stepper Vrefs,G92 A0 ; zero extruder,G1 Z0.4 ; position nozzle,G1 E25 F300 ; purge nozzle,G1 X-140 Y-70 Z0.15 F1200 ; slow wipe,G1 X-135 Y-65 Z0.5 F1200 ; lift,G92 A0 ; zero extruder,M73 P1 ;@body (notify GPX body has started),; **** end of start.gcode ****
;   layerChangeGcode,
;   toolChangeGcode,
;   endingGcode,; **** Replicator 2 end.gcode ****,M73 P100 ; end build progress,G1 Z155 F1000 ; send Z axis to bottom of machine,M104 S0 T0 ; cool down extruder,M127 ; stop blower fan,G162 X Y F3000 ; home XY maximum,M18 ; disable stepper,M72 P1 ; play Ta-Da song,; **** end of end.gcode ****
;   createX3G,1
;   celebration,0
;   celebrationSong,Random Song
;   createMB5G,0
;   postProcessing,
;   defaultSpeed,4800
;   outlineUnderspeed,0.5
;   solidInfillUnderspeed,0.8
;   supportUnderspeed,0.8
;   rapidXYspeed,9000
;   rapidZspeed,1200
;   minBridgingArea,50
;   bridgingExtrusionMultiplier,1
;   bridgingSpeedMultiplier,0.8
;   filamentDiameter,1.75
;   filamentPricePerKg,46
;   useMinPrintHeight,0
;   minPrintHeight,0
;   useMaxPrintHeight,0
;   maxPrintHeight,0
;   useDiaphragm,0
;   diaphragmLayerInterval,20
;   robustSlicing,1
;   mergeAllIntoSolid,0
;   onlyRetractWhenCrossingOutline,1
;   retractBetweenLayers,1
;   useRetractionMinTravel,0
;   retractionMinTravel,3
;   useRetractionOozeRate,0
;   retractionOozeRate,100
;   onlyWipeOutlines,1
;   toolChangeRetractionDistance,12
;   toolChangeExtraRestartDistance,-0.5
;   toolChangeRetractionSpeed,600
;   allowThinWallGapFill,1
;   thinWallAllowedOverlapPercentage,10
;   horizontalSizeCompensation,0
G90
M83
; **** Replicator 2 start.gcode ****
M73 P0 ; enable build progress
G162 X Y F3000 ; home XY maximum
G161 Z F1200 ; home Z minimum
G92 Z-5 ; set Z to -5
G1 Z0 ; move Z to 0
G161 Z F100 ; home Z slowly
M132 X Y Z A B ; recall home offsets
G1 X-145 Y-75 Z30 F9000 ; move to wait position off table
G130 X20 Y20 Z20 A20 B20 ; lower stepper Vrefs while heating
M127
M104 S230 T0
M133 T0 ; stabilize extruder temperature
G130 X127 Y127 Z40 A127 B127 ; default stepper Vrefs
G92 A0 ; zero extruder
G1 Z0.4 ; position nozzle
G1 E25 F300 ; purge nozzle
G1 X-140 Y-70 Z0.15 F1200 ; slow wipe
G1 X-135 Y-65 Z0.5 F1200 ; lift
G92 A0 ; zero extruder
M73 P1 ;@body (notify GPX body has started)
; **** end of start.gcode ****
G1 E-1 F1200
G1 Z0.18 F1200
; layer 1, Z = 0.18
M135 T0
; tool H0.2 W0.4
G1 X44.406 Y53.098 F9000
G1 E1 F360
G1 X-44.726 Y53.098 E2.6681 F2400
G1 X-44.74 Y53.098 E0.0004
G1 X-44.938 Y53.089 E0.0059
G1 X-44.952 Y53.088 E0.0004
G1 X-45.674 Y53.021 E0.0217
G1 X-45.692 Y53.019 E0.0006
G1 X-45.954 Y52.978 E0.0079
G1 X-45.972 Y52.975 E0.0006
G1 X-46.712 Y52.812 E0.0227
G1 X-46.73 Y52.808 E0.0006
G1 X-46.985 Y52.735 E0.0079
G1 X-47.003 Y52.73 E0.0006
G1 X-47.717 Y52.478 E0.0227
G1 X-47.734 Y52.471 E0.0006
G1 X-47.978 Y52.368 E0.0079
G1 X-47.995 Y52.36 E0.0006
G1 X-48.673 Y52.023 E0.0227
G1 X-48.689 Y52.014 E0.0006
G1 X-48.918 Y51.882 E0.0079
G1 X-48.934 Y51.872 E0.0006
G1 X-49.566 Y51.453 E0.0227
G1 X-49.581 Y51.443 E0.0006
G1 X-49.792 Y51.283 E0.0079
G1 X-49.807 Y51.271 E0.0006
G1 X-50.382 Y50.778 E0.0227
G1 X-50.396 Y50.766 E0.0006
G1 X-50.586 Y50.582 E0.0079
G1 X-50.598 Y50.569 E0.0006
G1 X-51.109 Y50.009 E0.0227
G1 X-51.121 Y49.995 E0.0006
G1 X-51.287 Y49.789 E0.0079
G1 X-51.298 Y49.774 E0.0006
G1 X-51.736 Y49.156 E0.0227
G1 X-51.746 Y49.14 E0.0006
G1 X-51.885 Y48.915 E0.0079
G1 X-51.895 Y48.899 E0.0006
G1 X-52.253 Y48.231 E0.0227
G1 X-52.261 Y48.215 E0.0006
G1 X-52.372 Y47.974 E0.0079
G1 X-52.379 Y47.957 E0.0006
G1 X-52.653 Y47.251 E0.0227
G1 X-52.659 Y47.233 E0.0006
G1 X-52.739 Y46.981 E0.0079
G1 X-52.744 Y46.963 E0.0006
G1 X-52.929 Y46.228 E0.0227
G1 X-52.933 Y46.21 E0.0006
G1 X-52.982 Y45.95 E0.0079
G1 X-52.985 Y45.932 E0.0006
G1 X-53.078 Y45.18 E0.0227
G1 X-53.079 Y45.162 E0.0006
G1 X-53.096 Y44.897 E0.0079
G1 X-53.096 Y44.879 E0.0006
G1 X-53.096 Y-44.879 E2.6868
G1 X-53.096 Y-44.897 E0.0006
G1 X-53.079 Y-45.162 E0.0079
G1 X-53.078 Y-45.18 E0.0006
G1 X-52.985 Y-45.932 E0.0227
G1 X-52.982 Y-45.95 E0.0006
G1 X-52.933 Y-46.21 E0.0079
G1 X-52.929 Y-46.228 E0.0006
G1 X-52.744 Y-46.963 E0.0227
G1 X-52.739 Y-46.981 E0.0006
G1 X-52.659 Y-47.233 E0.0079
G1 X-52.653 Y-47.251 E0.0006
G1 X-52.379 Y-47.957 E0.0227
G1 X-52.372 Y-47.974 E0.0006
G1 X-52.261 Y-48.215 E0.0079
G1 X-52.253 Y-48.231 E0.0006
G1 X-51.895 Y-48.899 E0.0227
G1 X-51.885 Y-48.915 E0.0006
G1 X-51.746 Y-49.14 E0.0079
G1 X-51.736 Y-49.156 E0.0006
G1 X-51.298 Y-49.774 E0.0227
G1 X-51.287 Y-49.789 E0.0006
G1 X-51.121 Y-49.995 E0.0079
G1 X-51.109 Y-50.009 E0.0006
G1 X-50.598 Y-50.569 E0.0227
G1 X-50.585 Y-50.582 E0.0006
G1 X-50.396 Y-50.766 E0.0079
G1 X-50.382 Y-50.778 E0.0006
G1 X-49.807 Y-51.271 E0.0227
G1 X-49.792 Y-51.283 E0.0006
G1 X-49.581 Y-51.443 E0.0079
G1 X-49.566 Y-51.453 E0.0006
G1 X-48.934 Y-51.872 E0.0227
G1 X-48.918 Y-51.882 E0.0006
G1 X-48.689 Y-52.014 E0.0079
G1 X-48.673 Y-52.023 E0.0006
G1 X-47.995 Y-52.36 E0.0227
G1 X-47.978 Y-52.368 E0.0006
G1 X-47.734 Y-52.471 E0.0079
G1 X-47.717 Y-52.478 E0.0006
G1 X-47.003 Y-52.73 E0.0227
G1 X-46.985 Y-52.735 E0.0006
G1 X-46.73 Y-52.808 E0.0079
G1 X-46.712 Y-52.812 E0.0006
G1 X-45.972 Y-52.975 E0.0227
G1 X-45.954 Y-52.978 E0.0006
G1 X-45.692 Y-53.019 E0.0079
G1 X-45.674 Y-53.021 E0.0006
G1 X-44.952 Y-53.088 E0.0217
G1 X-44.938 Y-53.089 E0.0004
G1 X-44.74 Y-53.098 E0.0059
G1 X-44.726 Y-53.098 E0.0004
G1 X44.406 Y-53.098 E2.6681
G1 X44.411 Y-53.098 E0.0001
G1 X44.477 Y-53.097 E0.002
G1 X44.482 Y-53.097 E0.0001
G1 X45.14 Y-53.077 E0.0197
G1 X45.158 Y-53.075 E0.0006
G1 X45.422 Y-53.051 E0.0079
G1 X45.44 Y-53.049 E0.0006
G1 X46.188 Y-52.933 E0.0227
G1 X46.206 Y-52.929 E0.0006
G1 X46.465 Y-52.873 E0.0079
G1 X46.483 Y-52.868 E0.0006
G1 X47.212 Y-52.661 E0.0227
G1 X47.229 Y-52.655 E0.0006
G1 X47.479 Y-52.567 E0.0079
G1 X47.496 Y-52.561 E0.0006
G1 X48.194 Y-52.265 E0.0227
G1 X48.211 Y-52.258 E0.0006
G1 X48.448 Y-52.139 E0.0079
G1 X48.465 Y-52.131 E0.0006
G1 X49.121 Y-51.752 E0.0227
G1 X49.136 Y-51.742 E0.0006
G1 X49.357 Y-51.596 E0.0079
G1 X49.372 Y-51.585 E0.0006
G1 X49.977 Y-51.129 E0.0227
G1 X49.991 Y-51.117 E0.0006
G1 X50.192 Y-50.945 E0.0079
G1 X50.206 Y-50.932 E0.0006
G1 X50.75 Y-50.405 E0.0227
G1 X50.762 Y-50.392 E0.0006
G1 X50.941 Y-50.196 E0.0079
G1 X50.953 Y-50.182 E0.0006
G1 X51.428 Y-49.592 E0.0227
G1 X51.439 Y-49.577 E0.0006
G1 X51.592 Y-49.361 E0.0079
G1 X51.602 Y-49.345 E0.0006
G1 X52.001 Y-48.701 E0.0227
G1 X52.01 Y-48.685 E0.0006
G1 X52.135 Y-48.452 E0.0079
G1 X52.144 Y-48.436 E0.0006
G1 X52.46 Y-47.748 E0.0227
G1 X52.467 Y-47.731 E0.0006
G1 X52.563 Y-47.483 E0.0079
G1 X52.569 Y-47.466 E0.0006
G1 X52.799 Y-46.744 E0.0227
G1 X52.804 Y-46.726 E0.0006
G1 X52.869 Y-46.469 E0.0079
G1 X52.873 Y-46.451 E0.0006
G1 X53.012 Y-45.707 E0.0227
G1 X53.015 Y-45.688 E0.0006
G1 X53.047 Y-45.425 E0.0079
G1 X53.049 Y-45.407 E0.0006
G1 X53.091 Y-44.732 E0.0202
G1 X53.091 Y-44.723 E0.0003
G1 X53.095 Y-44.59 E0.004
G1 X53.095 Y-44.581 E0.0003
G1 X53.096 Y44.566 E2.6685
G1 X53.096 Y44.575 E0.0003
G1 X53.092 Y44.708 E0.004
G1 X53.092 Y44.717 E0.0003
G1 X53.049 Y45.407 E0.0207
G1 X53.047 Y45.425 E0.0006
G1 X53.015 Y45.688 E0.0079
G1 X53.012 Y45.707 E0.0006
G1 X52.873 Y46.451 E0.0227
G1 X52.869 Y46.469 E0.0006
G1 X52.804 Y46.726 E0.0079
G1 X52.799 Y46.744 E0.0006
G1 X52.569 Y47.466 E0.0227
G1 X52.563 Y47.483 E0.0006
G1 X52.467 Y47.731 E0.0079
G1 X52.46 Y47.748 E0.0006
G1 X52.144 Y48.436 E0.0227
G1 X52.135 Y48.452 E0.0006
G1 X52.01 Y48.685 E0.0079
G1 X52.001 Y48.701 E0.0006
G1 X51.602 Y49.345 E0.0227
G1 X51.592 Y49.361 E0.0006
G1 X51.439 Y49.577 E0.0079
G1 X51.428 Y49.592 E0.0006
G1 X50.953 Y50.182 E0.0227
G1 X50.941 Y50.196 E0.0006
G1 X50.762 Y50.392 E0.0079
G1 X50.75 Y50.405 E0.0006
G1 X50.206 Y50.932 E0.0227
G1 X50.192 Y50.945 E0.0006
G1 X49.991 Y51.117 E0.0079
G1 X49.977 Y51.129 E0.0006
G1 X49.372 Y51.585 E0.0227
G1 X49.357 Y51.596 E0.0006
G1 X49.136 Y51.742 E0.0079
G1 X49.121 Y51.752 E0.0006
G1 X48.465 Y52.131 E0.0227
G1 X48.448 Y52.139 E0.0006
G1 X48.211 Y52.258 E0.0079
G1 X48.194 Y52.265 E0.0006
G1 X47.496 Y52.561 E0.0227
G1 X47.479 Y52.567 E0.0006
G1 X47.229 Y52.655 E0.0079
G1 X47.212 Y52.661 E0.0006
G1 X46.483 Y52.868 E0.0227
G1 X46.466 Y52.873 E0.0006
G1 X46.206 Y52.929 E0.0079
G1 X46.188 Y52.933 E0.0006
G1 X45.44 Y53.049 E0.0227
G1 X45.422 Y53.051 E0.0006
G1 X45.158 Y53.075 E0.0079
G1 X45.14 Y53.077 E0.0006
G1 X44.606 Y53.093 E0.016
G1 X44.482 Y53.097 F2400
G1 X44.477 Y53.097 F2400
G1 X44.411 Y53.098 F2400
G1 X44.406 Y53.098 F2400
G1 X44.405 Y52.698 F9000
G1 X-44.722 Y52.698 E2.6679 F2400
G1 X-44.726 Y52.698 E0.0001
G1 X-44.915 Y52.689 E0.0057
G1 X-44.92 Y52.689 E0.0001
G1 X-45.631 Y52.623 E0.0214
G1 X-45.637 Y52.622 E0.0002
G1 X-45.887 Y52.584 E0.0076
G1 X-45.893 Y52.582 E0.0002
G1 X-46.621 Y52.423 E0.0223
G1 X-46.627 Y52.421 E0.0002
G1 X-46.87 Y52.352 E0.0076
G1 X-46.876 Y52.35 E0.0002
G1 X-47.578 Y52.103 E0.0223
G1 X-47.584 Y52.101 E0.0002
G1 X-47.816 Y52.002 E0.0076
G1 X-47.822 Y52 E0.0002
G1 X-48.489 Y51.668 E0.0223
G1 X-48.494 Y51.665 E0.0002
G1 X-48.713 Y51.538 E0.0076
G1 X-48.718 Y51.535 E0.0002
G1 X-49.34 Y51.123 E0.0223
G1 X-49.345 Y51.12 E0.0002
G1 X-49.546 Y50.967 E0.0076
G1 X-49.551 Y50.964 E0.0002
G1 X-50.117 Y50.479 E0.0223
G1 X-50.122 Y50.475 E0.0002
G1 X-50.303 Y50.299 E0.0076
G1 X-50.307 Y50.295 E0.0002
G1 X-50.809 Y49.744 E0.0223
G1 X-50.813 Y49.739 E0.0002
G1 X-50.971 Y49.543 E0.0076
G1 X-50.975 Y49.538 E0.0002
G1 X-51.406 Y48.929 E0.0223
G1 X-51.409 Y48.924 E0.0002
G1 X-51.542 Y48.709 E0.0076
G1 X-51.545 Y48.704 E0.0002
G1 X-51.898 Y48.047 E0.0223
G1 X-51.9 Y48.042 E0.0002
G1 X-52.006 Y47.812 E0.0076
G1 X-52.008 Y47.807 E0.0002
G1 X-52.278 Y47.112 E0.0223
G1 X-52.28 Y47.106 E0.0002
G1 X-52.356 Y46.865 E0.0076
G1 X-52.358 Y46.859 E0.0002
G1 X-52.54 Y46.137 E0.0223
G1 X-52.541 Y46.131 E0.0002
G1 X-52.587 Y45.882 E0.0076
G1 X-52.588 Y45.876 E0.0002
G1 X-52.68 Y45.137 E0.0223
G1 X-52.68 Y45.131 E0.0002
G1 X-52.696 Y44.879 E0.0076
G1 X-52.696 Y44.872 E0.0002
G1 X-52.696 Y-44.872 E2.6864
G1 X-52.696 Y-44.879 E0.0002
G1 X-52.68 Y-45.131 E0.0076
G1 X-52.68 Y-45.137 E0.0002
G1 X-52.588 Y-45.876 E0.0223
G1 X-52.587 Y-45.882 E0.0002
G1 X-52.541 Y-46.131 E0.0076
G1 X-52.54 Y-46.137 E0.0002
G1 X-52.358 Y-46.859 E0.0223
G1 X-52.356 Y-46.865 E0.0002
G1 X-52.28 Y-47.106 E0.0076
G1 X-52.278 Y-47.112 E0.0002
G1 X-52.008 Y-47.807 E0.0223
G1 X-52.006 Y-47.812 E0.0002
G1 X-51.9 Y-48.042 E0.0076
G1 X-51.898 Y-48.047 E0.0002
G1 X-51.545 Y-48.704 E0.0223
G1 X-51.542 Y-48.709 E0.0002
G1 X-51.409 Y-48.924 E0.0076
G1 X-51.406 Y-48.929 E0.0002
G1 X-50.975 Y-49.538 E0.0223
G1 X-50.971 Y-49.543 E0.0002
G1 X-50.813 Y-49.739 E0.0076
G1 X-50.809 Y-49.744 E0.0002
G1 X-50.307 Y-50.295 E0.0223
G1 X-50.303 Y-50.299 E0.0002
G1 X-50.122 Y-50.475 E0.0075
G1 X-50.117 Y-50.479 E0.0002
G1 X-49.551 Y-50.964 E0.0223
G1 X-49.546 Y-50.967 E0.0002
G1 X-49.345 Y-51.12 E0.0076
G1 X-49.34 Y-51.123 E0.0002
G1 X-48.718 Y-51.535 E0.0223
G1 X-48.713 Y-51.538 E0.0002
G1 X-48.494 Y-51.665 E0.0076
G1 X-48.489 Y-51.668 E0.0002
G1 X-47.822 Y-52 E0.0223
G1 X-47.816 Y-52.002 E0.0002
G1 X-47.584 Y-52.101 E0.0076
G1 X-47.578 Y-52.103 E0.0002
G1 X-46.876 Y-52.35 E0.0223
G1 X-46.87 Y-52.352 E0.0002
G1 X-46.627 Y-52.421 E0.0076
G1 X-46.621 Y-52.423 E0.0002
G1 X-45.893 Y-52.582 E0.0223
G1 X-45.887 Y-52.584 E0.0002
G1 X-45.637 Y-52.622 E0.0076
G1 X-45.631 Y-52.623 E0.0002
G1 X-44.92 Y-52.689 E0.0214
G1 X-44.915 Y-52.689 E0.0001
G1 X-44.726 Y-52.698 E0.0057
G1 X-44.722 Y-52.698 E0.0001
G1 X44.405 Y-52.698 E2.6679
G1 X44.406 Y-52.698 E0
G1 X44.469 Y-52.697 E0.0019
G1 X44.471 Y-52.697 E0
G1 X45.121 Y-52.677 E0.0195
G1 X45.127 Y-52.677 E0.0002
G1 X45.378 Y-52.653 E0.0076
G1 X45.385 Y-52.653 E0.0002
G1 X46.121 Y-52.538 E0.0223
G1 X46.127 Y-52.537 E0.0002
G1 X46.374 Y-52.483 E0.0076
G1 X46.38 Y-52.482 E0.0002
G1 X47.096 Y-52.278 E0.0223
G1 X47.102 Y-52.276 E0.0002
G1 X47.34 Y-52.192 E0.0075
G1 X47.346 Y-52.19 E0.0002
G1 X48.032 Y-51.899 E0.0223
G1 X48.038 Y-51.897 E0.0002
G1 X48.264 Y-51.784 E0.0076
G1 X48.27 Y-51.781 E0.0002
G1 X48.915 Y-51.408 E0.0223
G1 X48.921 Y-51.405 E0.0002
G1 X49.131 Y-51.266 E0.0076
G1 X49.136 Y-51.262 E0.0002
G1 X49.731 Y-50.813 E0.0223
G1 X49.735 Y-50.809 E0.0002
G1 X49.927 Y-50.645 E0.0076
G1 X49.932 Y-50.641 E0.0002
G1 X50.467 Y-50.122 E0.0223
G1 X50.471 Y-50.118 E0.0002
G1 X50.641 Y-49.931 E0.0076
G1 X50.645 Y-49.926 E0.0002
G1 X51.112 Y-49.346 E0.0223
G1 X51.116 Y-49.341 E0.0002
G1 X51.262 Y-49.134 E0.0076
G1 X51.266 Y-49.129 E0.0002
