; G-Code generated by Simplify3D(R) Version 3.0.2
; Jan 31, 2016 at 3:06:02 PM
; Settings Summary
;   processName,Process1
;   applyToModels,_kittycam-lidar-hole-test
;   profileName,Printrbot Simple Metal(3) (modified)
;   profileVersion,2015-05-01 08:00:00
;   baseProfile,
;   printMaterial,PLA
;   printQuality,Medium
;   printExtruders,
;   extruderName,Primary Extruder
;   extruderToolheadNumber,0
;   extruderDiameter,0.4
;   extruderAutoWidth,0
;   extruderWidth,0.4
;   extrusionMultiplier,1
;   extruderUseRetract,1
;   extruderRetractionDistance,1
;   extruderExtraRestartDistance,0
;   extruderRetractionZLift,0
;   extruderRetractionSpeed,1800
;   extruderUseCoasting,0
;   extruderCoastingDistance,0.2
;   extruderUseWipe,0
;   extruderWipeDistance,5
;   primaryExtruder,0
;   layerHeight,0.3
;   topSolidLayers,3
;   bottomSolidLayers,3
;   perimeterOutlines,2
;   printPerimetersInsideOut,1
;   startPointOption,2
;   startPointOriginX,0
;   startPointOriginY,0
;   startPointOriginZ,300
;   sequentialIslands,0
;   spiralVaseMode,0
;   firstLayerHeightPercentage,90
;   firstLayerWidthPercentage,100
;   firstLayerUnderspeed,0.5
;   useRaft,0
;   raftExtruder,0
;   raftLayers,3
;   raftOffset,3
;   raftSeparationDistance,0.14
;   raftInfill,85
;   disableRaftBaseLayers,0
;   useSkirt,1
;   skirtExtruder,0
;   skirtLayers,1
;   skirtOutlines,2
;   skirtOffset,4
;   usePrimePillar,0
;   primePillarExtruder,999
;   primePillarWidth,12
;   primePillarLocation,7
;   primePillarSpeedMultiplier,1
;   useOozeShield,0
;   oozeShieldExtruder,999
;   oozeShieldOffset,2
;   oozeShieldOutlines,1
;   oozeShieldSidewallShape,1
;   oozeShieldSidewallAngle,30
;   oozeShieldSpeedMultiplier,1
;   infillExtruder,0
;   internalInfillPattern,Rectilinear
;   externalInfillPattern,Rectilinear
;   infillPercentage,10
;   outlineOverlapPercentage,15
;   infillExtrusionWidthPercentage,100
;   minInfillLength,5
;   infillLayerInterval,1
;   infillAngles,45,-45
;   overlapInfillAngles,0
;   generateSupport,0
;   supportExtruder,0
;   supportInfillPercentage,30
;   supportExtraInflation,0
;   denseSupportLayers,0
;   denseSupportInfillPercentage,70
;   supportLayerInterval,1
;   supportHorizontalPartOffset,0.3
;   supportUpperSeparationLayers,1
;   supportLowerSeparationLayers,1
;   supportType,0
;   supportGridSpacing,4
;   maxOverhangAngle,45
;   supportAngles,0
;   temperatureName,Primary Extruder,Heated Bed
;   temperatureNumber,0,1
;   temperatureSetpointCount,1,1
;   temperatureSetpointLayers,1,1
;   temperatureSetpointTemperatures,210,0
;   temperatureStabilizeAtStartup,1,1
;   temperatureHeatedBed,0,1
;   temperatureRelayBetweenLayers,0,0
;   temperatureRelayBetweenLoops,0,0
;   fanLayers,1,2
;   fanSpeeds,0,100
;   blipFanToFullPower,1
;   adjustSpeedForCooling,1
;   minSpeedLayerTime,15
;   minCoolingSpeedSlowdown,20
;   increaseFanForCooling,0
;   minFanLayerTime,45
;   maxCoolingFanSpeed,100
;   increaseFanForBridging,0
;   bridgingFanSpeed,100
;   use5D,1
;   relativeEdistances,0
;   allowEaxisZeroing,1
;   independentExtruderAxes,0
;   includeM10123,0
;   stickySupport,1
;   applyToolheadOffsets,0
;   gcodeXoffset,0
;   gcodeYoffset,0
;   gcodeZoffset,0
;   overrideMachineDefinition,1
;   machineTypeOverride,0
;   strokeXoverride,150
;   strokeYoverride,150
;   strokeZoverride,150
;   originOffsetXoverride,0
;   originOffsetYoverride,0
;   originOffsetZoverride,0
;   homeXdirOverride,-1
;   homeYdirOverride,-1
;   homeZdirOverride,-1
;   flipXoverride,1
;   flipYoverride,-1
;   flipZoverride,1
;   toolheadOffsets,0,0|0,0|0,0|0,0|0,0|0,0
;   overrideFirmwareConfiguration,1
;   firmwareTypeOverride,RepRap (Marlin/Repetier/Sprinter)
;   GPXconfigOverride,r2
;   baudRateOverride,250000
;   overridePrinterModels,1
;   printerModelsOverride
;   startingGcode,G28 X0 Y0 ; home X and Y axes, G29 ; probe Z
;   layerChangeGcode,
;   retractionGcode,
;   toolChangeGcode,
;   endingGcode,M104 S0 T0 ; turn off extruder,M140 S0 T1 ; turn off bed,G28 X0 ; home X axis,M84 ; disable motors
;   createX3G,0
;   celebration,0
;   celebrationSong,Random Song
;   createMB5G,0
;   postProcessing,
;   defaultSpeed,3000
;   outlineUnderspeed,0.5
;   solidInfillUnderspeed,0.8
;   supportUnderspeed,0.8
;   rapidXYspeed,3600
;   rapidZspeed,1000
;   minBridgingArea,50
;   bridgingExtraInflation,0
;   bridgingExtrusionMultiplier,1
;   bridgingSpeedMultiplier,1
;   filamentDiameter,1.75
;   filamentPricePerKg,46
;   filamentDensity,1.25
;   useMinPrintHeight,0
;   minPrintHeight,0
;   useMaxPrintHeight,0
;   maxPrintHeight,0
;   useDiaphragm,0
;   diaphragmLayerInterval,20
;   robustSlicing,1
;   mergeAllIntoSolid,0
;   onlyRetractWhenCrossingOutline,1
;   retractBetweenLayers,1
;   useRetractionMinTravel,0
;   retractionMinTravel,3
;   retractWhileWiping,0
;   onlyWipeOutlines,1
;   avoidCrossingOutline,0
;   maxMovementDetourFactor,3
;   toolChangeRetractionDistance,12
;   toolChangeExtraRestartDistance,-0.5
;   toolChangeRetractionSpeed,600
;   allowThinWallGapFill,1
;   thinWallAllowedOverlapPercentage,10
;   horizontalSizeCompensation,0
G90
M82
M106 S0
M140 S0
M104 S210 T0
M109 S210 T0
G28 X0 Y0 ; home X and Y axes
 G29 ; probe Z
G92 E0
G1 E-1.0000 F1800
G1 Z0.270 F1000
; layer 1, Z = 0.27
T0
; tool H0.300 W0.400
; skirt
G1 X38.003 Y55.491 F3600
G1 E0.0000 F540
G92 E0
G1 X38.224 Y55.400 E0.0119 F1500
G1 X111.776 Y55.400 E3.6815
G1 X111.997 Y55.491 E3.6934
G1 X114.509 Y58.003 E3.8706
G1 X114.600 Y58.224 E3.8825
G1 X114.600 Y91.776 E5.5564
G1 X114.509 Y91.997 E5.5683
G1 X111.997 Y94.509 E5.7456
G1 X111.776 Y94.600 E5.7575
G1 X38.224 Y94.600 E9.4270
G1 X38.003 Y94.509 E9.4389
G1 X35.491 Y91.997 E9.6162
G1 X35.400 Y91.776 E9.6281
G1 X35.400 Y58.224 E11.3020
G1 X35.491 Y58.003 E11.3139
G1 X38.003 Y55.491 E11.4911
G1 X38.230 Y55.830 F3600
G92 E0
G1 X38.303 Y55.800 E0.0040 F1500
G1 X111.697 Y55.800 E3.6656
G1 X111.770 Y55.830 E3.6695
G1 X114.170 Y58.230 E3.8388
G1 X114.200 Y58.303 E3.8428
G1 X114.200 Y91.697 E5.5088
G1 X114.170 Y91.770 E5.5128
G1 X111.770 Y94.170 E5.6821
G1 X111.697 Y94.200 E5.6860
G1 X38.303 Y94.200 E9.3476
G1 X38.230 Y94.170 E9.3516
G1 X35.830 Y91.770 E9.5209
G1 X35.800 Y91.697 E9.5249
G1 X35.800 Y58.303 E11.1909
G1 X35.830 Y58.230 E11.1948
G1 X38.230 Y55.830 E11.3641
G92 E0
G1 E-1.0000 F1800
; inner perimeter
G1 X40.600 Y60.600 F3600
G1 E0.0000 F1800
G92 E0
G1 X109.400 Y60.600 E3.4324 F1125
G1 X109.400 Y89.400 E4.8693
G1 X40.600 Y89.400 E8.3017
G1 X40.600 Y60.600 E9.7386
; outer perimeter
G1 X40.200 Y60.200 F3600
G92 E0
G1 X109.800 Y60.200 E3.4724 F750
G1 X109.800 Y89.800 E4.9491
G1 X40.200 Y89.800 E8.4215
G1 X40.200 Y60.200 E9.8982
; inner perimeter
G1 X53.133 Y67.521 F3600
G92 E0
G1 X52.804 Y67.930 E0.0262 F1125
G1 X52.494 Y68.352 E0.0523
G1 X52.203 Y68.789 E0.0785
G1 X51.932 Y69.238 E0.1046
G1 X51.682 Y69.699 E0.1308
G1 X51.453 Y70.170 E0.1570
G1 X51.246 Y70.652 E0.1831
G1 X51.060 Y71.142 E0.2093
G1 X50.897 Y71.641 E0.2354
G1 X50.756 Y72.146 E0.2616
G1 X50.639 Y72.657 E0.2877
G1 X50.545 Y73.172 E0.3139
G1 X50.474 Y73.692 E0.3401
G1 X50.427 Y74.214 E0.3662
G1 X50.404 Y74.715 E0.3912
G1 X50.403 Y75.261 E0.4185
G1 X50.427 Y75.786 E0.4447
G1 X50.474 Y76.308 E0.4709
G1 X50.545 Y76.828 E0.4970
G1 X50.639 Y77.343 E0.5232
G1 X50.756 Y77.854 E0.5493
G1 X50.897 Y78.359 E0.5755
G1 X51.060 Y78.858 E0.6016
G1 X51.246 Y79.348 E0.6278
G1 X51.453 Y79.830 E0.6540
G1 X51.682 Y80.301 E0.6801
G1 X51.932 Y80.762 E0.7063
G1 X52.203 Y81.211 E0.7324
G1 X52.494 Y81.648 E0.7586
G1 X52.804 Y82.070 E0.7847
G1 X53.133 Y82.479 E0.8109
G1 X53.480 Y82.872 E0.8371
G1 X53.861 Y83.265 E0.8644
G1 X54.243 Y83.624 E0.8906
G1 X54.641 Y83.966 E0.9167
G1 X55.053 Y84.289 E0.9429
G1 X55.480 Y84.594 E0.9690
G1 X55.920 Y84.879 E0.9952
G1 X56.373 Y85.143 E1.0213
G1 X56.837 Y85.387 E1.0475
G1 X57.312 Y85.610 E1.0737
G1 X57.796 Y85.811 E1.0998
G1 X58.289 Y85.990 E1.1260
G1 X58.789 Y86.146 E1.1521
G1 X59.296 Y86.280 E1.1783
G1 X59.808 Y86.391 E1.2044
G1 X60.325 Y86.478 E1.2306
G1 X60.846 Y86.542 E1.2567
G1 X61.369 Y86.582 E1.2829
G1 X61.892 Y86.599 E1.3091
G1 X62.417 Y86.592 E1.3352
G1 X62.940 Y86.561 E1.3614
G1 X63.462 Y86.507 E1.3875
G1 X63.980 Y86.429 E1.4137
G1 X64.495 Y86.328 E1.4399
G1 X65.004 Y86.204 E1.4660
G1 X65.507 Y86.057 E1.4922
G1 X66.003 Y85.887 E1.5183
G1 X66.491 Y85.695 E1.5445
G1 X66.969 Y85.481 E1.5706
G1 X67.438 Y85.246 E1.5968
G1 X67.896 Y84.990 E1.6229
G1 X68.341 Y84.713 E1.6491
G1 X68.774 Y84.417 E1.6753
G1 X69.192 Y84.101 E1.7014
G1 X69.596 Y83.767 E1.7276
G1 X69.984 Y83.415 E1.7537
G1 X70.345 Y83.058 E1.7790
G1 X70.752 Y82.600 E1.8096
G1 X81.244 Y82.600 E2.3330
G1 X81.478 Y82.870 E2.3509
G1 X81.861 Y83.265 E2.3783
G1 X82.243 Y83.624 E2.4045
G1 X82.640 Y83.966 E2.4306
G1 X83.053 Y84.289 E2.4568
G1 X83.480 Y84.594 E2.4829
G1 X83.920 Y84.879 E2.5091
G1 X84.373 Y85.143 E2.5353
G1 X84.837 Y85.387 E2.5614
G1 X85.312 Y85.610 E2.5876
G1 X85.796 Y85.811 E2.6137
G1 X86.289 Y85.990 E2.6399
G1 X86.789 Y86.146 E2.6660
G1 X87.296 Y86.280 E2.6922
G1 X87.808 Y86.391 E2.7184
G1 X88.325 Y86.478 E2.7445
G1 X88.846 Y86.542 E2.7707
G1 X89.369 Y86.582 E2.7968
G1 X89.892 Y86.599 E2.8230
G1 X90.417 Y86.592 E2.8491
G1 X90.940 Y86.561 E2.8753
G1 X91.462 Y86.507 E2.9015
G1 X91.980 Y86.429 E2.9276
G1 X92.495 Y86.328 E2.9538
G1 X93.004 Y86.204 E2.9799
G1 X93.507 Y86.057 E3.0061
G1 X94.003 Y85.887 E3.0322
G1 X94.491 Y85.695 E3.0584
G1 X94.970 Y85.481 E3.0846
G1 X95.438 Y85.246 E3.1107
G1 X95.896 Y84.990 E3.1369
G1 X96.341 Y84.713 E3.1630
G1 X96.773 Y84.417 E3.1892
G1 X97.192 Y84.101 E3.2153
G1 X97.596 Y83.767 E3.2415
G1 X97.984 Y83.415 E3.2676
G1 X98.340 Y83.062 E3.2926
G1 X98.696 Y82.677 E3.3188
G1 X99.034 Y82.277 E3.3449
G1 X99.354 Y81.861 E3.3711
G1 X99.654 Y81.431 E3.3973
G1 X99.935 Y80.988 E3.4234
G1 X100.196 Y80.533 E3.4496
G1 X100.435 Y80.067 E3.4757
G1 X100.653 Y79.590 E3.5019
G1 X100.850 Y79.104 E3.5281
G1 X101.024 Y78.609 E3.5542
G1 X101.176 Y78.108 E3.5804
G1 X101.305 Y77.600 E3.6065
G1 X101.411 Y77.086 E3.6327
G1 X101.494 Y76.568 E3.6588
G1 X101.553 Y76.047 E3.6850
G1 X101.588 Y75.524 E3.7112
G1 X101.600 Y75.000 E3.7373
G1 X101.588 Y74.476 E3.7635
G1 X101.553 Y73.953 E3.7896
G1 X101.494 Y73.432 E3.8158
G1 X101.411 Y72.914 E3.8420
G1 X101.305 Y72.400 E3.8681
G1 X101.176 Y71.892 E3.8943
G1 X101.024 Y71.391 E3.9204
G1 X100.850 Y70.896 E3.9466
G1 X100.653 Y70.410 E3.9727
G1 X100.435 Y69.933 E3.9989
G1 X100.196 Y69.467 E4.0251
G1 X99.935 Y69.012 E4.0512
G1 X99.654 Y68.569 E4.0774
G1 X99.354 Y68.139 E4.1035
G1 X99.034 Y67.723 E4.1297
G1 X98.696 Y67.322 E4.1559
G1 X98.324 Y66.921 E4.1832
G1 X97.950 Y66.553 E4.2093
G1 X97.560 Y66.202 E4.2355
G1 X97.155 Y65.870 E4.2617
G1 X96.735 Y65.556 E4.2878
G1 X96.301 Y65.261 E4.3140
G1 X95.855 Y64.986 E4.3401
G1 X95.396 Y64.732 E4.3663
G1 X94.927 Y64.499 E4.3924
G1 X94.447 Y64.287 E4.4186
G1 X93.959 Y64.097 E4.4448
G1 X93.462 Y63.929 E4.4709
G1 X92.958 Y63.784 E4.4971
G1 X92.449 Y63.662 E4.5232
G1 X91.933 Y63.563 E4.5494
G1 X91.415 Y63.487 E4.5755
G1 X90.893 Y63.435 E4.6017
G1 X90.370 Y63.406 E4.6279
G1 X89.845 Y63.401 E4.6540
G1 X89.321 Y63.420 E4.6802
G1 X88.799 Y63.463 E4.7063
G1 X88.279 Y63.529 E4.7325
G1 X87.762 Y63.618 E4.7586
G1 X87.250 Y63.731 E4.7848
G1 X86.744 Y63.867 E4.8110
G1 X86.244 Y64.025 E4.8371
G1 X85.752 Y64.206 E4.8633
G1 X85.269 Y64.409 E4.8894
G1 X84.795 Y64.634 E4.9156
G1 X84.331 Y64.880 E4.9418
G1 X83.880 Y65.146 E4.9679
G1 X83.441 Y65.433 E4.9941
G1 X83.015 Y65.739 E5.0202
G1 X82.604 Y66.064 E5.0464
G1 X82.208 Y66.407 E5.0725
G1 X81.844 Y66.751 E5.0975
G1 X81.478 Y67.130 E5.1238
G1 X81.244 Y67.400 E5.1416
G1 X70.761 Y67.400 E5.6646
G1 X70.696 Y67.322 E5.6697
G1 X70.324 Y66.921 E5.6970
G1 X69.950 Y66.553 E5.7231
G1 X69.560 Y66.203 E5.7493
G1 X69.155 Y65.870 E5.7754
G1 X68.735 Y65.556 E5.8016
G1 X68.302 Y65.261 E5.8277
G1 X67.855 Y64.986 E5.8539
G1 X67.397 Y64.732 E5.8801
G1 X66.927 Y64.499 E5.9062
G1 X66.447 Y64.287 E5.9324
G1 X65.959 Y64.097 E5.9585
G1 X65.462 Y63.929 E5.9847
G1 X64.958 Y63.784 E6.0109
G1 X64.449 Y63.662 E6.0370
G1 X63.934 Y63.563 E6.0632
G1 X63.415 Y63.487 E6.0893
G1 X62.893 Y63.435 E6.1155
G1 X62.370 Y63.406 E6.1416
G1 X61.845 Y63.401 E6.1678
G1 X61.321 Y63.420 E6.1940
G1 X60.799 Y63.463 E6.2201
G1 X60.279 Y63.529 E6.2463
G1 X59.762 Y63.618 E6.2724
G1 X59.250 Y63.731 E6.2986
G1 X58.744 Y63.867 E6.3247
G1 X58.244 Y64.025 E6.3509
G1 X57.752 Y64.206 E6.3771
G1 X57.269 Y64.409 E6.4032
G1 X56.795 Y64.634 E6.4294
G1 X56.332 Y64.880 E6.4555
G1 X55.880 Y65.146 E6.4817
G1 X55.441 Y65.433 E6.5078
G1 X55.015 Y65.739 E6.5340
G1 X54.604 Y66.064 E6.5602
G1 X54.208 Y66.407 E6.5863
G1 X53.844 Y66.751 E6.6113
G1 X53.479 Y67.128 E6.6375
G1 X53.133 Y67.521 E6.6636
; outer perimeter
G1 X53.438 Y67.779 F3600
G92 E0
G1 X53.121 Y68.173 E0.0253 F750
G1 X52.821 Y68.582 E0.0505
G1 X52.541 Y69.003 E0.0758
G1 X52.279 Y69.437 E0.1010
G1 X52.038 Y69.881 E0.1263
G1 X51.817 Y70.337 E0.1515
G1 X51.617 Y70.802 E0.1768
G1 X51.437 Y71.275 E0.2020
G1 X51.280 Y71.756 E0.2273
G1 X51.144 Y72.244 E0.2526
G1 X51.031 Y72.737 E0.2778
G1 X50.940 Y73.235 E0.3031
G1 X50.871 Y73.737 E0.3283
G1 X50.826 Y74.241 E0.3536
G1 X50.804 Y74.724 E0.3777
G1 X50.803 Y75.253 E0.4041
G1 X50.826 Y75.759 E0.4294
G1 X50.871 Y76.263 E0.4546
G1 X50.940 Y76.765 E0.4799
G1 X51.031 Y77.262 E0.5051
G1 X51.144 Y77.756 E0.5304
G1 X51.280 Y78.244 E0.5556
G1 X51.437 Y78.725 E0.5809
G1 X51.617 Y79.198 E0.6061
G1 X51.817 Y79.663 E0.6314
G1 X52.038 Y80.119 E0.6567
G1 X52.279 Y80.563 E0.6819
G1 X52.541 Y80.997 E0.7072
G1 X52.821 Y81.418 E0.7324
G1 X53.121 Y81.827 E0.7577
G1 X53.438 Y82.221 E0.7829
G1 X53.773 Y82.600 E0.8082
G1 X54.142 Y82.980 E0.8346
G1 X54.510 Y83.327 E0.8598
G1 X54.894 Y83.657 E0.8851
G1 X55.293 Y83.969 E0.9103
G1 X55.705 Y84.263 E0.9356
G1 X56.130 Y84.538 E0.9609
G1 X56.567 Y84.793 E0.9861
G1 X57.015 Y85.029 E1.0114
G1 X57.473 Y85.244 E1.0366
G1 X57.941 Y85.438 E1.0619
G1 X58.417 Y85.611 E1.0871
G1 X58.900 Y85.762 E1.1124
G1 X59.389 Y85.891 E1.1376
G1 X59.884 Y85.998 E1.1629
G1 X60.383 Y86.082 E1.1881
G1 X60.886 Y86.144 E1.2134
G1 X61.390 Y86.183 E1.2387
G1 X61.896 Y86.199 E1.2639
G1 X62.402 Y86.192 E1.2892
G1 X62.908 Y86.163 E1.3144
G1 X63.411 Y86.110 E1.3397
G1 X63.912 Y86.035 E1.3649
G1 X64.408 Y85.938 E1.3902
G1 X64.900 Y85.817 E1.4154
G1 X65.386 Y85.675 E1.4407
G1 X65.865 Y85.511 E1.4660
G1 X66.336 Y85.326 E1.4912
G1 X66.798 Y85.120 E1.5165
G1 X67.251 Y84.892 E1.5417
G1 X67.692 Y84.645 E1.5670
G1 X68.122 Y84.378 E1.5922
G1 X68.540 Y84.092 E1.6175
G1 X68.944 Y83.787 E1.6427
G1 X69.334 Y83.464 E1.6680
G1 X69.709 Y83.124 E1.6932
G1 X70.054 Y82.783 E1.7175
G1 X70.572 Y82.200 E1.7564
G1 X81.426 Y82.200 E2.2979
G1 X81.773 Y82.600 E2.3243
G1 X82.142 Y82.980 E2.3507
G1 X82.510 Y83.327 E2.3760
G1 X82.894 Y83.657 E2.4012
G1 X83.293 Y83.969 E2.4265
G1 X83.705 Y84.263 E2.4517
G1 X84.130 Y84.538 E2.4770
G1 X84.567 Y84.793 E2.5022
G1 X85.015 Y85.029 E2.5275
G1 X85.473 Y85.244 E2.5527
G1 X85.941 Y85.438 E2.5780
G1 X86.417 Y85.611 E2.6033
G1 X86.900 Y85.762 E2.6285
G1 X87.389 Y85.891 E2.6538
G1 X87.884 Y85.998 E2.6790
G1 X88.383 Y86.082 E2.7043
G1 X88.886 Y86.144 E2.7295
G1 X89.390 Y86.183 E2.7548
G1 X89.896 Y86.199 E2.7800
G1 X90.402 Y86.192 E2.8053
G1 X90.908 Y86.163 E2.8305
G1 X91.411 Y86.110 E2.8558
G1 X91.912 Y86.035 E2.8811
G1 X92.408 Y85.938 E2.9063
G1 X92.900 Y85.817 E2.9316
G1 X93.386 Y85.675 E2.9568
G1 X93.865 Y85.511 E2.9821
G1 X94.336 Y85.326 E3.0073
G1 X94.798 Y85.120 E3.0326
G1 X95.251 Y84.892 E3.0578
G1 X95.692 Y84.645 E3.0831
G1 X96.122 Y84.378 E3.1083
G1 X96.540 Y84.092 E3.1336
G1 X96.944 Y83.787 E3.1589
G1 X97.334 Y83.464 E3.1841
G1 X97.709 Y83.124 E3.2094
G1 X98.053 Y82.784 E3.2335
G1 X98.396 Y82.412 E3.2587
G1 X98.723 Y82.025 E3.2840
G1 X99.031 Y81.624 E3.3093
G1 X99.321 Y81.209 E3.3345
G1 X99.592 Y80.782 E3.3598
G1 X99.844 Y80.342 E3.3850
G1 X100.075 Y79.892 E3.4103
G1 X100.286 Y79.432 E3.4355
G1 X100.476 Y78.962 E3.4608
G1 X100.644 Y78.485 E3.4860
G1 X100.791 Y78.000 E3.5113
G1 X100.915 Y77.510 E3.5366
G1 X101.017 Y77.014 E3.5618
G1 X101.097 Y76.514 E3.5871
G1 X101.154 Y76.011 E3.6123
G1 X101.189 Y75.506 E3.6376
