; G-Code generated by Simplify3D(R) Version 3.0.2
; Jan 31, 2016 at 9:05:43 AM
; Settings Summary
;   processName,Process1
;   applyToModels,_kittycam-spacer-38mm,_kittycam-spacer-38mm(2),_kittycam-spacer-38mm(3),_kittycam-spacer-38mm(4)
;   profileName,Printrbot Simple Metal(3) (modified)
;   profileVersion,2015-05-01 08:00:00
;   baseProfile,
;   printMaterial,PLA
;   printQuality,Medium
;   printExtruders,
;   extruderName,Primary Extruder
;   extruderToolheadNumber,0
;   extruderDiameter,0.4
;   extruderAutoWidth,0
;   extruderWidth,0.4
;   extrusionMultiplier,1
;   extruderUseRetract,1
;   extruderRetractionDistance,1
;   extruderExtraRestartDistance,0
;   extruderRetractionZLift,0
;   extruderRetractionSpeed,1800
;   extruderUseCoasting,0
;   extruderCoastingDistance,0.2
;   extruderUseWipe,0
;   extruderWipeDistance,5
;   primaryExtruder,0
;   layerHeight,0.3
;   topSolidLayers,3
;   bottomSolidLayers,3
;   perimeterOutlines,2
;   printPerimetersInsideOut,1
;   startPointOption,2
;   startPointOriginX,0
;   startPointOriginY,0
;   startPointOriginZ,300
;   sequentialIslands,0
;   spiralVaseMode,0
;   firstLayerHeightPercentage,90
;   firstLayerWidthPercentage,100
;   firstLayerUnderspeed,0.5
;   useRaft,0
;   raftExtruder,0
;   raftLayers,3
;   raftOffset,3
;   raftSeparationDistance,0.14
;   raftInfill,85
;   disableRaftBaseLayers,0
;   useSkirt,1
;   skirtExtruder,0
;   skirtLayers,1
;   skirtOutlines,2
;   skirtOffset,4
;   usePrimePillar,0
;   primePillarExtruder,999
;   primePillarWidth,12
;   primePillarLocation,7
;   primePillarSpeedMultiplier,1
;   useOozeShield,0
;   oozeShieldExtruder,999
;   oozeShieldOffset,2
;   oozeShieldOutlines,1
;   oozeShieldSidewallShape,1
;   oozeShieldSidewallAngle,30
;   oozeShieldSpeedMultiplier,1
;   infillExtruder,0
;   internalInfillPattern,Rectilinear
;   externalInfillPattern,Rectilinear
;   infillPercentage,10
;   outlineOverlapPercentage,15
;   infillExtrusionWidthPercentage,100
;   minInfillLength,5
;   infillLayerInterval,1
;   infillAngles,45,-45
;   overlapInfillAngles,0
;   generateSupport,0
;   supportExtruder,0
;   supportInfillPercentage,30
;   supportExtraInflation,0
;   denseSupportLayers,0
;   denseSupportInfillPercentage,70
;   supportLayerInterval,1
;   supportHorizontalPartOffset,0.3
;   supportUpperSeparationLayers,1
;   supportLowerSeparationLayers,1
;   supportType,0
;   supportGridSpacing,4
;   maxOverhangAngle,45
;   supportAngles,0
;   temperatureName,Primary Extruder,Heated Bed
;   temperatureNumber,0,1
;   temperatureSetpointCount,1,1
;   temperatureSetpointLayers,1,1
;   temperatureSetpointTemperatures,210,0
;   temperatureStabilizeAtStartup,1,1
;   temperatureHeatedBed,0,1
;   temperatureRelayBetweenLayers,0,0
;   temperatureRelayBetweenLoops,0,0
;   fanLayers,1,2
;   fanSpeeds,0,100
;   blipFanToFullPower,1
;   adjustSpeedForCooling,1
;   minSpeedLayerTime,15
;   minCoolingSpeedSlowdown,20
;   increaseFanForCooling,0
;   minFanLayerTime,45
;   maxCoolingFanSpeed,100
;   increaseFanForBridging,0
;   bridgingFanSpeed,100
;   use5D,1
;   relativeEdistances,0
;   allowEaxisZeroing,1
;   independentExtruderAxes,0
;   includeM10123,0
;   stickySupport,1
;   applyToolheadOffsets,0
;   gcodeXoffset,0
;   gcodeYoffset,0
;   gcodeZoffset,0
;   overrideMachineDefinition,1
;   machineTypeOverride,0
;   strokeXoverride,150
;   strokeYoverride,150
;   strokeZoverride,150
;   originOffsetXoverride,0
;   originOffsetYoverride,0
;   originOffsetZoverride,0
;   homeXdirOverride,-1
;   homeYdirOverride,-1
;   homeZdirOverride,-1
;   flipXoverride,1
;   flipYoverride,-1
;   flipZoverride,1
;   toolheadOffsets,0,0|0,0|0,0|0,0|0,0|0,0
;   overrideFirmwareConfiguration,1
;   firmwareTypeOverride,RepRap (Marlin/Repetier/Sprinter)
;   GPXconfigOverride,r2
;   baudRateOverride,250000
;   overridePrinterModels,1
;   printerModelsOverride
;   startingGcode,G28 X0 Y0 ; home X and Y axes, G29 ; probe Z
;   layerChangeGcode,
;   retractionGcode,
;   toolChangeGcode,
;   endingGcode,M104 S0 T0 ; turn off extruder,M140 S0 T1 ; turn off bed,G28 X0 ; home X axis,M84 ; disable motors
;   createX3G,0
;   celebration,0
;   celebrationSong,Random Song
;   createMB5G,0
;   postProcessing,
;   defaultSpeed,3000
;   outlineUnderspeed,0.5
;   solidInfillUnderspeed,0.8
;   supportUnderspeed,0.8
;   rapidXYspeed,3600
;   rapidZspeed,1000
;   minBridgingArea,50
;   bridgingExtraInflation,0
;   bridgingExtrusionMultiplier,1
;   bridgingSpeedMultiplier,1
;   filamentDiameter,1.75
;   filamentPricePerKg,46
;   filamentDensity,1.25
;   useMinPrintHeight,0
;   minPrintHeight,0
;   useMaxPrintHeight,0
;   maxPrintHeight,0
;   useDiaphragm,0
;   diaphragmLayerInterval,20
;   robustSlicing,1
;   mergeAllIntoSolid,0
;   onlyRetractWhenCrossingOutline,1
;   retractBetweenLayers,1
;   useRetractionMinTravel,0
;   retractionMinTravel,3
;   retractWhileWiping,0
;   onlyWipeOutlines,1
;   avoidCrossingOutline,0
;   maxMovementDetourFactor,3
;   toolChangeRetractionDistance,12
;   toolChangeExtraRestartDistance,-0.5
;   toolChangeRetractionSpeed,600
;   allowThinWallGapFill,1
;   thinWallAllowedOverlapPercentage,10
;   horizontalSizeCompensation,0
G90
M82
M106 S0
M140 S0
M104 S210 T0
M109 S210 T0
G28 X0 Y0 ; home X and Y axes
 G29 ; probe Z
G92 E0
G1 E-1.0000 F1800
G1 Z0.270 F1000
; layer 1, Z = 0.27
T0
; tool H0.300 W0.400
; skirt
G1 X68.212 Y50.219 F3600
G1 E0.0000 F540
G92 E0
G1 X68.377 Y50.013 E0.0132 F1500
G1 X68.389 Y50.000 E0.0141
G1 X68.899 Y49.440 E0.0519
G1 X68.912 Y49.427 E0.0528
G1 X69.102 Y49.242 E0.0660
G1 X69.116 Y49.230 E0.0669
G1 X69.692 Y48.735 E0.1048
G1 X69.707 Y48.723 E0.1057
G1 X69.919 Y48.563 E0.1190
G1 X69.934 Y48.552 E0.1199
G1 X70.566 Y48.134 E0.1578
G1 X70.582 Y48.124 E0.1587
G1 X70.811 Y47.992 E0.1719
G1 X70.827 Y47.983 E0.1728
G1 X71.505 Y47.645 E0.2106
G1 X71.522 Y47.638 E0.2115
G1 X71.766 Y47.534 E0.2247
G1 X71.783 Y47.528 E0.2257
G1 X72.498 Y47.276 E0.2634
G1 X72.515 Y47.270 E0.2644
G1 X72.770 Y47.198 E0.2776
G1 X72.788 Y47.193 E0.2785
G1 X73.528 Y47.031 E0.3163
G1 X73.546 Y47.028 E0.3172
G1 X73.808 Y46.987 E0.3304
G1 X73.826 Y46.985 E0.3314
G1 X74.581 Y46.915 E0.3692
G1 X74.599 Y46.914 E0.3701
G1 X74.864 Y46.906 E0.3833
G1 X74.882 Y46.906 E0.3842
G1 X75.639 Y46.929 E0.4220
G1 X75.658 Y46.930 E0.4229
G1 X75.922 Y46.955 E0.4362
G1 X75.940 Y46.957 E0.4371
G1 X76.689 Y47.073 E0.4749
G1 X76.707 Y47.076 E0.4758
G1 X76.965 Y47.133 E0.4890
G1 X76.983 Y47.138 E0.4899
G1 X77.712 Y47.345 E0.5277
G1 X77.729 Y47.350 E0.5286
G1 X77.979 Y47.439 E0.5419
G1 X77.997 Y47.445 E0.5428
G1 X78.694 Y47.741 E0.5806
G1 X78.711 Y47.748 E0.5815
G1 X78.948 Y47.866 E0.5947
G1 X78.964 Y47.875 E0.5956
G1 X79.620 Y48.254 E0.6334
G1 X79.636 Y48.264 E0.6343
G1 X79.857 Y48.410 E0.6476
G1 X79.872 Y48.421 E0.6485
G1 X80.476 Y48.877 E0.6863
G1 X80.491 Y48.889 E0.6872
G1 X80.692 Y49.061 E0.7004
G1 X80.706 Y49.073 E0.7013
G1 X81.250 Y49.601 E0.7391
G1 X81.262 Y49.614 E0.7400
G1 X81.441 Y49.810 E0.7533
G1 X81.453 Y49.824 E0.7542
G1 X81.926 Y50.412 E0.7919
G1 X81.937 Y50.427 E0.7928
G1 X82.090 Y50.642 E0.8060
G1 X82.100 Y50.658 E0.8069
G1 X82.499 Y51.301 E0.8446
G1 X82.508 Y51.317 E0.8456
G1 X82.634 Y51.551 E0.8588
G1 X82.642 Y51.567 E0.8597
G1 X82.959 Y52.255 E0.8975
G1 X82.966 Y52.272 E0.8984
G1 X83.062 Y52.519 E0.9116
G1 X83.068 Y52.536 E0.9125
G1 X83.298 Y53.258 E0.9503
G1 X83.303 Y53.276 E0.9513
G1 X83.368 Y53.533 E0.9645
G1 X83.372 Y53.551 E0.9654
G1 X83.511 Y54.295 E1.0032
G1 X83.514 Y54.314 E1.0041
G1 X83.547 Y54.577 E1.0173
G1 X83.548 Y54.595 E1.0183
G1 X83.595 Y55.351 E1.0560
G1 X83.596 Y55.369 E1.0570
G1 X83.596 Y55.634 E1.0702
G1 X83.596 Y55.653 E1.0711
G1 X83.549 Y56.409 E1.1089
G1 X83.548 Y56.427 E1.1098
G1 X83.515 Y56.690 E1.1230
G1 X83.512 Y56.709 E1.1240
G1 X83.373 Y57.453 E1.1617
G1 X83.370 Y57.471 E1.1627
G1 X83.305 Y57.728 E1.1759
G1 X83.300 Y57.746 E1.1768
G1 X83.071 Y58.468 E1.2146
G1 X83.065 Y58.485 E1.2155
G1 X82.969 Y58.732 E1.2287
G1 X82.962 Y58.749 E1.2297
G1 X82.645 Y59.438 E1.2674
G1 X82.637 Y59.454 E1.2684
G1 X82.512 Y59.688 E1.2816
G1 X82.503 Y59.704 E1.2825
G1 X82.104 Y60.348 E1.3203
G1 X82.094 Y60.363 E1.3212
G1 X81.941 Y60.580 E1.3344
G1 X81.930 Y60.594 E1.3354
G1 X81.455 Y61.185 E1.3732
G1 X81.443 Y61.199 E1.3741
G1 X81.265 Y61.395 E1.3873
G1 X81.252 Y61.408 E1.3882
G1 X80.707 Y61.937 E1.4261
G1 X80.693 Y61.949 E1.4270
G1 X80.630 Y62.004 E1.4312
G1 X80.692 Y62.057 E1.4353
G1 X80.706 Y62.070 E1.4362
G1 X81.250 Y62.597 E1.4740
G1 X81.262 Y62.610 E1.4749
G1 X81.441 Y62.806 E1.4882
G1 X81.453 Y62.820 E1.4891
G1 X81.926 Y63.408 E1.5268
G1 X81.938 Y63.423 E1.5277
G1 X82.090 Y63.639 E1.5408
G1 X82.100 Y63.654 E1.5418
G1 X82.499 Y64.297 E1.5795
G1 X82.508 Y64.313 E1.5805
G1 X82.634 Y64.547 E1.5937
G1 X82.642 Y64.563 E1.5946
G1 X82.959 Y65.251 E1.6324
G1 X82.966 Y65.268 E1.6333
G1 X83.062 Y65.515 E1.6465
G1 X83.068 Y65.533 E1.6474
G1 X83.298 Y66.254 E1.6852
G1 X83.303 Y66.272 E1.6862
G1 X83.368 Y66.529 E1.6994
G1 X83.372 Y66.547 E1.7003
G1 X83.511 Y67.292 E1.7381
G1 X83.514 Y67.310 E1.7390
G1 X83.547 Y67.573 E1.7522
G1 X83.548 Y67.591 E1.7531
G1 X83.595 Y68.347 E1.7909
G1 X83.596 Y68.366 E1.7919
G1 X83.596 Y68.631 E1.8051
G1 X83.596 Y68.649 E1.8060
G1 X83.549 Y69.405 E1.8438
G1 X83.548 Y69.424 E1.8447
G1 X83.515 Y69.686 E1.8579
G1 X83.512 Y69.705 E1.8588
G1 X83.373 Y70.449 E1.8966
G1 X83.370 Y70.467 E1.8976
G1 X83.305 Y70.724 E1.9108
G1 X83.300 Y70.742 E1.9117
G1 X83.071 Y71.464 E1.9495
G1 X83.065 Y71.481 E1.9504
G1 X82.969 Y71.729 E1.9636
G1 X82.962 Y71.746 E1.9646
G1 X82.645 Y72.434 E2.0023
G1 X82.637 Y72.450 E2.0033
G1 X82.512 Y72.684 E2.0165
G1 X82.503 Y72.700 E2.0174
G1 X82.104 Y73.344 E2.0552
G1 X82.094 Y73.359 E2.0561
G1 X81.941 Y73.576 E2.0693
G1 X81.930 Y73.591 E2.0703
G1 X81.455 Y74.181 E2.1080
G1 X81.443 Y74.195 E2.1090
G1 X81.265 Y74.391 E2.1222
G1 X81.252 Y74.404 E2.1231
G1 X80.707 Y74.933 E2.1610
G1 X80.693 Y74.946 E2.1619
G1 X80.630 Y75.000 E2.1661
G1 X80.692 Y75.053 E2.1702
G1 X80.706 Y75.066 E2.1711
G1 X81.250 Y75.593 E2.2089
G1 X81.262 Y75.606 E2.2098
G1 X81.441 Y75.802 E2.2230
G1 X81.453 Y75.816 E2.2240
G1 X81.926 Y76.405 E2.2616
G1 X81.938 Y76.419 E2.2626
G1 X82.090 Y76.635 E2.2757
G1 X82.100 Y76.650 E2.2767
G1 X82.499 Y77.294 E2.3144
G1 X82.508 Y77.310 E2.3153
G1 X82.634 Y77.543 E2.3286
G1 X82.642 Y77.560 E2.3295
G1 X82.959 Y78.247 E2.3673
G1 X82.966 Y78.264 E2.3682
G1 X83.062 Y78.511 E2.3814
G1 X83.068 Y78.529 E2.3823
G1 X83.298 Y79.251 E2.4201
G1 X83.303 Y79.268 E2.4210
G1 X83.368 Y79.525 E2.4343
G1 X83.372 Y79.543 E2.4352
G1 X83.511 Y80.288 E2.4730
G1 X83.514 Y80.306 E2.4739
G1 X83.547 Y80.569 E2.4871
G1 X83.548 Y80.587 E2.4880
G1 X83.595 Y81.343 E2.5258
G1 X83.596 Y81.362 E2.5268
G1 X83.596 Y81.627 E2.5400
G1 X83.596 Y81.645 E2.5409
G1 X83.549 Y82.401 E2.5787
G1 X83.548 Y82.420 E2.5796
G1 X83.515 Y82.683 E2.5928
G1 X83.512 Y82.701 E2.5937
G1 X83.373 Y83.446 E2.6315
G1 X83.370 Y83.464 E2.6325
G1 X83.305 Y83.721 E2.6457
G1 X83.300 Y83.738 E2.6466
G1 X83.071 Y84.460 E2.6844
G1 X83.065 Y84.478 E2.6853
G1 X82.969 Y84.725 E2.6985
G1 X82.962 Y84.742 E2.6995
G1 X82.645 Y85.430 E2.7372
G1 X82.637 Y85.447 E2.7382
G1 X82.512 Y85.680 E2.7514
G1 X82.503 Y85.696 E2.7523
G1 X82.104 Y86.340 E2.7901
G1 X82.094 Y86.356 E2.7910
G1 X81.941 Y86.572 E2.8042
G1 X81.930 Y86.587 E2.8051
G1 X81.455 Y87.177 E2.8429
G1 X81.443 Y87.191 E2.8439
G1 X81.265 Y87.387 E2.8571
G1 X81.252 Y87.400 E2.8580
G1 X80.707 Y87.929 E2.8959
G1 X80.693 Y87.942 E2.8968
G1 X80.630 Y87.996 E2.9010
G1 X80.692 Y88.050 E2.9051
G1 X80.706 Y88.062 E2.9060
G1 X81.250 Y88.589 E2.9438
G1 X81.262 Y88.603 E2.9447
G1 X81.441 Y88.798 E2.9579
G1 X81.453 Y88.812 E2.9589
G1 X81.926 Y89.401 E2.9965
G1 X81.938 Y89.416 E2.9975
G1 X82.090 Y89.631 E3.0106
G1 X82.100 Y89.646 E3.0116
G1 X82.499 Y90.290 E3.0493
G1 X82.508 Y90.306 E3.0502
G1 X82.634 Y90.539 E3.0635
G1 X82.642 Y90.556 E3.0644
G1 X82.959 Y91.244 E3.1022
G1 X82.966 Y91.261 E3.1031
G1 X83.062 Y91.508 E3.1163
G1 X83.068 Y91.525 E3.1172
G1 X83.298 Y92.247 E3.1550
G1 X83.303 Y92.264 E3.1559
G1 X83.368 Y92.521 E3.1692
G1 X83.372 Y92.540 E3.1701
G1 X83.511 Y93.284 E3.2079
G1 X83.514 Y93.302 E3.2088
G1 X83.547 Y93.565 E3.2220
G1 X83.548 Y93.584 E3.2229
G1 X83.595 Y94.340 E3.2607
G1 X83.596 Y94.358 E3.2616
G1 X83.596 Y94.623 E3.2749
G1 X83.596 Y94.642 E3.2758
G1 X83.549 Y95.398 E3.3136
G1 X83.548 Y95.416 E3.3145
G1 X83.515 Y95.679 E3.3277
G1 X83.512 Y95.697 E3.3286
G1 X83.373 Y96.442 E3.3664
G1 X83.370 Y96.460 E3.3673
G1 X83.305 Y96.717 E3.3806
G1 X83.300 Y96.735 E3.3815
G1 X83.071 Y97.456 E3.4193
G1 X83.065 Y97.474 E3.4202
G1 X82.969 Y97.721 E3.4334
G1 X82.962 Y97.738 E3.4343
G1 X82.645 Y98.426 E3.4721
G1 X82.637 Y98.443 E3.4731
G1 X82.512 Y98.676 E3.4863
G1 X82.503 Y98.692 E3.4872
G1 X82.104 Y99.336 E3.5250
G1 X82.094 Y99.352 E3.5259
G1 X81.941 Y99.568 E3.5391
G1 X81.930 Y99.583 E3.5400
G1 X81.455 Y100.173 E3.5778
G1 X81.443 Y100.187 E3.5788
G1 X81.265 Y100.383 E3.5920
G1 X81.252 Y100.396 E3.5929
G1 X80.707 Y100.926 E3.6308
G1 X80.693 Y100.938 E3.6317
G1 X80.491 Y101.111 E3.6450
G1 X80.477 Y101.123 E3.6459
G1 X79.872 Y101.579 E3.6837
G1 X79.857 Y101.590 E3.6846
G1 X79.636 Y101.736 E3.6979
G1 X79.620 Y101.746 E3.6988
G1 X78.964 Y102.125 E3.7366
G1 X78.948 Y102.134 E3.7375
G1 X78.711 Y102.252 E3.7507
G1 X78.694 Y102.259 E3.7516
G1 X77.997 Y102.555 E3.7894
G1 X77.979 Y102.561 E3.7903
G1 X77.729 Y102.649 E3.8036
G1 X77.712 Y102.655 E3.8045
G1 X76.983 Y102.862 E3.8423
G1 X76.965 Y102.867 E3.8432
G1 X76.707 Y102.924 E3.8564
G1 X76.689 Y102.927 E3.8573
G1 X75.940 Y103.043 E3.8951
G1 X75.922 Y103.045 E3.8960
G1 X75.658 Y103.070 E3.9093
G1 X75.639 Y103.071 E3.9102
G1 X74.882 Y103.094 E3.9480
G1 X74.864 Y103.094 E3.9489
G1 X74.599 Y103.086 E3.9621
G1 X74.581 Y103.085 E3.9630
G1 X73.826 Y103.015 E4.0008
G1 X73.808 Y103.013 E4.0018
G1 X73.546 Y102.972 E4.0150
G1 X73.528 Y102.969 E4.0159
G1 X72.788 Y102.807 E4.0537
G1 X72.770 Y102.802 E4.0546
G1 X72.515 Y102.730 E4.0678
G1 X72.498 Y102.724 E4.0688
G1 X71.783 Y102.472 E4.1065
G1 X71.766 Y102.466 E4.1075
G1 X71.522 Y102.362 E4.1207
G1 X71.505 Y102.355 E4.1216
G1 X70.827 Y102.017 E4.1594
G1 X70.811 Y102.008 E4.1603
G1 X70.582 Y101.876 E4.1735
G1 X70.566 Y101.866 E4.1745
G1 X69.934 Y101.448 E4.2122
G1 X69.919 Y101.437 E4.2132
G1 X69.708 Y101.277 E4.2264
G1 X69.694 Y101.266 E4.2273
G1 X69.118 Y100.773 E4.2651
G1 X69.105 Y100.761 E4.2660
G1 X68.914 Y100.576 E4.2792
G1 X68.901 Y100.563 E4.2802
G1 X68.393 Y100.005 E4.3178
G1 X68.381 Y99.991 E4.3188
G1 X68.215 Y99.785 E4.3319
G1 X68.204 Y99.770 E4.3328
G1 X67.766 Y99.153 E4.3706
G1 X67.756 Y99.137 E4.3715
G1 X67.617 Y98.912 E4.3848
G1 X67.607 Y98.896 E4.3857
G1 X67.249 Y98.229 E4.4235
G1 X67.240 Y98.212 E4.4244
G1 X67.130 Y97.972 E4.4376
G1 X67.122 Y97.955 E4.4385
G1 X66.849 Y97.249 E4.4763
G1 X66.842 Y97.231 E4.4772
G1 X66.762 Y96.979 E4.4905
G1 X66.757 Y96.961 E4.4914
G1 X66.572 Y96.226 E4.5292
G1 X66.568 Y96.208 E4.5301
G1 X66.519 Y95.948 E4.5433
G1 X66.516 Y95.930 E4.5442
G1 X66.423 Y95.178 E4.5820
G1 X66.421 Y95.160 E4.5829
G1 X66.405 Y94.895 E4.5962
G1 X66.404 Y94.877 E4.5971
G1 X66.404 Y94.119 E4.6349
G1 X66.404 Y94.101 E4.6358
G1 X66.420 Y93.836 E4.6490
G1 X66.422 Y93.818 E4.6499
G1 X66.515 Y93.066 E4.6877
G1 X66.518 Y93.048 E4.6886
G1 X66.566 Y92.787 E4.7019
G1 X66.570 Y92.769 E4.7028
G1 X66.755 Y92.035 E4.7406
G1 X66.760 Y92.017 E4.7415
G1 X66.840 Y91.765 E4.7547
G1 X66.846 Y91.747 E4.7556
G1 X67.119 Y91.041 E4.7934
G1 X67.127 Y91.024 E4.7943
G1 X67.237 Y90.783 E4.8076
G1 X67.245 Y90.766 E4.8085
G1 X67.605 Y90.097 E4.8464
G1 X67.614 Y90.081 E4.8473
G1 X67.754 Y89.855 E4.8606
G1 X67.764 Y89.839 E4.8615
G1 X68.201 Y89.223 E4.8992
G1 X68.212 Y89.208 E4.9001
G1 X68.377 Y89.002 E4.9133
G1 X68.389 Y88.988 E4.9142
G1 X68.899 Y88.429 E4.9520
G1 X68.912 Y88.415 E4.9529
G1 X69.102 Y88.231 E4.9661
G1 X69.116 Y88.218 E4.9670
G1 X69.374 Y87.996 E4.9841
G1 X69.118 Y87.777 E5.0009
G1 X69.105 Y87.764 E5.0018
G1 X68.914 Y87.580 E5.0150
G1 X68.901 Y87.567 E5.0159
G1 X68.393 Y87.008 E5.0536
G1 X68.381 Y86.994 E5.0545
G1 X68.215 Y86.789 E5.0677
G1 X68.204 Y86.774 E5.0686
