; G-Code generated by Simplify3D(R) Version 3.0.2
; Jan 31, 2016 at 1:10:00 PM
; Settings Summary
;   processName,Process1
;   applyToModels,kittycam-plate-top
;   profileName,Printrbot Simple Metal(3) (modified)
;   profileVersion,2015-05-01 08:00:00
;   baseProfile,
;   printMaterial,PLA
;   printQuality,Medium
;   printExtruders,
;   extruderName,Primary Extruder
;   extruderToolheadNumber,0
;   extruderDiameter,0.4
;   extruderAutoWidth,0
;   extruderWidth,0.4
;   extrusionMultiplier,1
;   extruderUseRetract,1
;   extruderRetractionDistance,1
;   extruderExtraRestartDistance,0
;   extruderRetractionZLift,0
;   extruderRetractionSpeed,1800
;   extruderUseCoasting,0
;   extruderCoastingDistance,0.2
;   extruderUseWipe,0
;   extruderWipeDistance,5
;   primaryExtruder,0
;   layerHeight,0.3
;   topSolidLayers,3
;   bottomSolidLayers,3
;   perimeterOutlines,2
;   printPerimetersInsideOut,1
;   startPointOption,2
;   startPointOriginX,0
;   startPointOriginY,0
;   startPointOriginZ,300
;   sequentialIslands,0
;   spiralVaseMode,0
;   firstLayerHeightPercentage,90
;   firstLayerWidthPercentage,100
;   firstLayerUnderspeed,0.5
;   useRaft,0
;   raftExtruder,0
;   raftLayers,3
;   raftOffset,3
;   raftSeparationDistance,0.14
;   raftInfill,85
;   disableRaftBaseLayers,0
;   useSkirt,1
;   skirtExtruder,0
;   skirtLayers,1
;   skirtOutlines,2
;   skirtOffset,4
;   usePrimePillar,0
;   primePillarExtruder,999
;   primePillarWidth,12
;   primePillarLocation,7
;   primePillarSpeedMultiplier,1
;   useOozeShield,0
;   oozeShieldExtruder,999
;   oozeShieldOffset,2
;   oozeShieldOutlines,1
;   oozeShieldSidewallShape,1
;   oozeShieldSidewallAngle,30
;   oozeShieldSpeedMultiplier,1
;   infillExtruder,0
;   internalInfillPattern,Rectilinear
;   externalInfillPattern,Rectilinear
;   infillPercentage,50
;   outlineOverlapPercentage,15
;   infillExtrusionWidthPercentage,100
;   minInfillLength,5
;   infillLayerInterval,1
;   infillAngles,45,-45
;   overlapInfillAngles,0
;   generateSupport,0
;   supportExtruder,0
;   supportInfillPercentage,30
;   supportExtraInflation,0
;   denseSupportLayers,0
;   denseSupportInfillPercentage,70
;   supportLayerInterval,1
;   supportHorizontalPartOffset,0.3
;   supportUpperSeparationLayers,1
;   supportLowerSeparationLayers,1
;   supportType,0
;   supportGridSpacing,4
;   maxOverhangAngle,45
;   supportAngles,0
;   temperatureName,Primary Extruder,Heated Bed
;   temperatureNumber,0,1
;   temperatureSetpointCount,1,1
;   temperatureSetpointLayers,1,1
;   temperatureSetpointTemperatures,210,0
;   temperatureStabilizeAtStartup,1,1
;   temperatureHeatedBed,0,1
;   temperatureRelayBetweenLayers,0,0
;   temperatureRelayBetweenLoops,0,0
;   fanLayers,1,2
;   fanSpeeds,0,100
;   blipFanToFullPower,1
;   adjustSpeedForCooling,1
;   minSpeedLayerTime,15
;   minCoolingSpeedSlowdown,20
;   increaseFanForCooling,0
;   minFanLayerTime,45
;   maxCoolingFanSpeed,100
;   increaseFanForBridging,0
;   bridgingFanSpeed,100
;   use5D,1
;   relativeEdistances,0
;   allowEaxisZeroing,1
;   independentExtruderAxes,0
;   includeM10123,0
;   stickySupport,1
;   applyToolheadOffsets,0
;   gcodeXoffset,0
;   gcodeYoffset,0
;   gcodeZoffset,0
;   overrideMachineDefinition,1
;   machineTypeOverride,0
;   strokeXoverride,150
;   strokeYoverride,150
;   strokeZoverride,150
;   originOffsetXoverride,0
;   originOffsetYoverride,0
;   originOffsetZoverride,0
;   homeXdirOverride,-1
;   homeYdirOverride,-1
;   homeZdirOverride,-1
;   flipXoverride,1
;   flipYoverride,-1
;   flipZoverride,1
;   toolheadOffsets,0,0|0,0|0,0|0,0|0,0|0,0
;   overrideFirmwareConfiguration,1
;   firmwareTypeOverride,RepRap (Marlin/Repetier/Sprinter)
;   GPXconfigOverride,r2
;   baudRateOverride,250000
;   overridePrinterModels,1
;   printerModelsOverride
;   startingGcode,G28 X0 Y0 ; home X and Y axes, G29 ; probe Z
;   layerChangeGcode,
;   retractionGcode,
;   toolChangeGcode,
;   endingGcode,M104 S0 T0 ; turn off extruder,M140 S0 T1 ; turn off bed,G28 X0 ; home X axis,M84 ; disable motors
;   createX3G,0
;   celebration,0
;   celebrationSong,Random Song
;   createMB5G,0
;   postProcessing,
;   defaultSpeed,3000
;   outlineUnderspeed,0.5
;   solidInfillUnderspeed,0.8
;   supportUnderspeed,0.8
;   rapidXYspeed,3600
;   rapidZspeed,1000
;   minBridgingArea,50
;   bridgingExtraInflation,0
;   bridgingExtrusionMultiplier,1
;   bridgingSpeedMultiplier,1
;   filamentDiameter,1.75
;   filamentPricePerKg,46
;   filamentDensity,1.25
;   useMinPrintHeight,0
;   minPrintHeight,0
;   useMaxPrintHeight,0
;   maxPrintHeight,0
;   useDiaphragm,0
;   diaphragmLayerInterval,20
;   robustSlicing,1
;   mergeAllIntoSolid,0
;   onlyRetractWhenCrossingOutline,1
;   retractBetweenLayers,1
;   useRetractionMinTravel,0
;   retractionMinTravel,3
;   retractWhileWiping,0
;   onlyWipeOutlines,1
;   avoidCrossingOutline,0
;   maxMovementDetourFactor,3
;   toolChangeRetractionDistance,12
;   toolChangeExtraRestartDistance,-0.5
;   toolChangeRetractionSpeed,600
;   allowThinWallGapFill,1
;   thinWallAllowedOverlapPercentage,10
;   horizontalSizeCompensation,0
G90
M82
M106 S0
M140 S0
M104 S210 T0
M109 S210 T0
G28 X0 Y0 ; home X and Y axes
 G29 ; probe Z
G92 E0
G1 E-1.0000 F1800
G1 Z0.270 F1000
; layer 1, Z = 0.27
T0
; tool H0.300 W0.400
; skirt
G1 X22.914 Y22.918 F3600
G1 E0.0000 F540
G92 E0
G1 X23.104 Y22.734 E0.0132 F1500
G1 X23.118 Y22.722 E0.0141
G1 X23.693 Y22.229 E0.0519
G1 X23.708 Y22.217 E0.0528
G1 X23.919 Y22.057 E0.0661
G1 X23.934 Y22.047 E0.0670
G1 X24.566 Y21.628 E0.1048
G1 X24.582 Y21.618 E0.1057
G1 X24.811 Y21.486 E0.1189
G1 X24.827 Y21.477 E0.1198
G1 X25.505 Y21.140 E0.1576
G1 X25.522 Y21.132 E0.1586
G1 X25.766 Y21.029 E0.1718
G1 X25.783 Y21.022 E0.1727
G1 X26.497 Y20.770 E0.2105
G1 X26.515 Y20.765 E0.2114
G1 X26.770 Y20.692 E0.2246
G1 X26.788 Y20.688 E0.2255
G1 X27.528 Y20.525 E0.2633
G1 X27.546 Y20.522 E0.2642
G1 X27.808 Y20.481 E0.2775
G1 X27.826 Y20.479 E0.2784
G1 X28.548 Y20.412 E0.3145
G1 X28.562 Y20.411 E0.3152
G1 X28.760 Y20.402 E0.3251
G1 X28.774 Y20.402 E0.3258
G1 X120.906 Y20.402 E4.9223
G1 X120.911 Y20.402 E4.9226
G1 X120.977 Y20.403 E4.9259
G1 X120.982 Y20.403 E4.9261
G1 X121.640 Y20.423 E4.9589
G1 X121.658 Y20.425 E4.9599
G1 X121.922 Y20.449 E4.9731
G1 X121.940 Y20.451 E4.9740
G1 X122.688 Y20.567 E5.0118
G1 X122.706 Y20.571 E5.0127
G1 X122.965 Y20.627 E5.0259
G1 X122.983 Y20.632 E5.0268
G1 X123.712 Y20.839 E5.0646
G1 X123.729 Y20.845 E5.0655
G1 X123.979 Y20.933 E5.0787
G1 X123.996 Y20.939 E5.0797
G1 X124.694 Y21.235 E5.1175
G1 X124.711 Y21.242 E5.1184
G1 X124.948 Y21.361 E5.1316
G1 X124.965 Y21.369 E5.1326
G1 X125.621 Y21.748 E5.1704
G1 X125.636 Y21.758 E5.1713
G1 X125.857 Y21.904 E5.1845
G1 X125.872 Y21.915 E5.1854
G1 X126.477 Y22.371 E5.2232
G1 X126.491 Y22.383 E5.2241
G1 X126.692 Y22.555 E5.2373
G1 X126.706 Y22.568 E5.2383
G1 X127.250 Y23.095 E5.2760
G1 X127.262 Y23.108 E5.2770
G1 X127.441 Y23.304 E5.2902
G1 X127.453 Y23.318 E5.2911
G1 X127.928 Y23.908 E5.3289
G1 X127.939 Y23.923 E5.3298
G1 X128.092 Y24.139 E5.3430
G1 X128.102 Y24.155 E5.3440
G1 X128.501 Y24.799 E5.3818
G1 X128.510 Y24.815 E5.3827
G1 X128.635 Y25.048 E5.3959
G1 X128.644 Y25.064 E5.3968
G1 X128.960 Y25.752 E5.4346
G1 X128.967 Y25.769 E5.4355
G1 X129.063 Y26.017 E5.4487
G1 X129.069 Y26.034 E5.4497
G1 X129.299 Y26.756 E5.4874
G1 X129.304 Y26.774 E5.4884
G1 X129.369 Y27.031 E5.5016
G1 X129.373 Y27.049 E5.5025
G1 X129.512 Y27.793 E5.5403
G1 X129.515 Y27.812 E5.5412
G1 X129.547 Y28.075 E5.5544
G1 X129.549 Y28.093 E5.5554
G1 X129.592 Y28.783 E5.5899
G1 X129.592 Y28.792 E5.5903
G1 X129.596 Y28.925 E5.5969
G1 X129.596 Y28.934 E5.5974
G1 X129.596 Y121.066 E10.1939
G1 X129.596 Y121.075 E10.1943
G1 X129.592 Y121.208 E10.2009
G1 X129.592 Y121.217 E10.2014
G1 X129.549 Y121.907 E10.2359
G1 X129.547 Y121.925 E10.2368
G1 X129.515 Y122.188 E10.2500
G1 X129.512 Y122.207 E10.2510
G1 X129.373 Y122.951 E10.2888
G1 X129.369 Y122.969 E10.2897
G1 X129.304 Y123.226 E10.3029
G1 X129.299 Y123.244 E10.3038
G1 X129.069 Y123.966 E10.3416
G1 X129.063 Y123.983 E10.3425
G1 X128.967 Y124.231 E10.3558
G1 X128.960 Y124.248 E10.3567
G1 X128.644 Y124.936 E10.3945
G1 X128.635 Y124.952 E10.3954
G1 X128.510 Y125.185 E10.4086
G1 X128.501 Y125.201 E10.4095
G1 X128.102 Y125.845 E10.4473
G1 X128.092 Y125.861 E10.4482
G1 X127.939 Y126.077 E10.4614
G1 X127.928 Y126.092 E10.4624
G1 X127.453 Y126.682 E10.5002
G1 X127.441 Y126.696 E10.5011
G1 X127.262 Y126.892 E10.5143
G1 X127.250 Y126.905 E10.5152
G1 X126.706 Y127.432 E10.5530
G1 X126.692 Y127.445 E10.5539
G1 X126.491 Y127.617 E10.5671
G1 X126.477 Y127.629 E10.5681
G1 X125.872 Y128.085 E10.6058
G1 X125.857 Y128.096 E10.6068
G1 X125.637 Y128.242 E10.6200
G1 X125.621 Y128.252 E10.6209
G1 X124.965 Y128.631 E10.6587
G1 X124.948 Y128.639 E10.6596
G1 X124.711 Y128.758 E10.6729
G1 X124.694 Y128.765 E10.6738
G1 X123.996 Y129.061 E10.7116
G1 X123.979 Y129.067 E10.7125
G1 X123.729 Y129.155 E10.7257
G1 X123.712 Y129.161 E10.7266
G1 X122.983 Y129.368 E10.7644
G1 X122.965 Y129.373 E10.7653
G1 X122.706 Y129.429 E10.7786
G1 X122.688 Y129.433 E10.7795
G1 X121.940 Y129.549 E10.8173
G1 X121.922 Y129.551 E10.8182
G1 X121.658 Y129.575 E10.8314
G1 X121.640 Y129.577 E10.8323
G1 X120.982 Y129.597 E10.8652
G1 X120.977 Y129.597 E10.8654
G1 X120.911 Y129.598 E10.8687
G1 X120.906 Y129.598 E10.8689
G1 X28.774 Y129.598 E15.4654
G1 X28.760 Y129.598 E15.4661
G1 X28.562 Y129.589 E15.4760
G1 X28.548 Y129.588 E15.4767
G1 X27.826 Y129.521 E15.5129
G1 X27.808 Y129.519 E15.5138
G1 X27.546 Y129.478 E15.5270
G1 X27.528 Y129.475 E15.5279
G1 X26.788 Y129.312 E15.5657
G1 X26.770 Y129.308 E15.5667
G1 X26.515 Y129.235 E15.5799
G1 X26.497 Y129.230 E15.5808
G1 X25.783 Y128.978 E15.6186
G1 X25.766 Y128.971 E15.6195
G1 X25.522 Y128.868 E15.6327
G1 X25.505 Y128.860 E15.6336
G1 X24.827 Y128.523 E15.6714
G1 X24.811 Y128.514 E15.6723
G1 X24.582 Y128.382 E15.6856
G1 X24.566 Y128.372 E15.6865
G1 X23.934 Y127.953 E15.7243
G1 X23.919 Y127.943 E15.7252
G1 X23.708 Y127.783 E15.7384
G1 X23.693 Y127.771 E15.7394
G1 X23.118 Y127.278 E15.7771
G1 X23.104 Y127.266 E15.7781
G1 X22.915 Y127.082 E15.7913
G1 X22.902 Y127.069 E15.7922
G1 X22.391 Y126.509 E15.8300
G1 X22.379 Y126.495 E15.8309
G1 X22.213 Y126.289 E15.8441
G1 X22.202 Y126.274 E15.8450
G1 X21.764 Y125.655 E15.8828
G1 X21.754 Y125.640 E15.8837
G1 X21.615 Y125.415 E15.8970
G1 X21.605 Y125.399 E15.8979
G1 X21.247 Y124.731 E15.9357
G1 X21.239 Y124.715 E15.9366
G1 X21.128 Y124.474 E15.9498
G1 X21.121 Y124.457 E15.9507
G1 X20.847 Y123.751 E15.9885
G1 X20.841 Y123.733 E15.9895
G1 X20.761 Y123.481 E16.0027
G1 X20.756 Y123.463 E16.0036
G1 X20.571 Y122.728 E16.0414
G1 X20.567 Y122.710 E16.0423
G1 X20.518 Y122.450 E16.0555
G1 X20.515 Y122.432 E16.0565
G1 X20.422 Y121.680 E16.0942
G1 X20.421 Y121.662 E16.0952
G1 X20.404 Y121.397 E16.1084
G1 X20.404 Y121.379 E16.1093
G1 X20.404 Y28.621 E20.7370
G1 X20.404 Y28.603 E20.7379
G1 X20.421 Y28.338 E20.7511
G1 X20.422 Y28.320 E20.7520
G1 X20.515 Y27.568 E20.7898
G1 X20.518 Y27.550 E20.7908
G1 X20.567 Y27.290 E20.8040
G1 X20.571 Y27.272 E20.8049
G1 X20.756 Y26.537 E20.8427
G1 X20.761 Y26.519 E20.8436
G1 X20.841 Y26.267 E20.8568
G1 X20.847 Y26.249 E20.8578
G1 X21.121 Y25.543 E20.8955
G1 X21.128 Y25.526 E20.8965
G1 X21.239 Y25.285 E20.9097
G1 X21.247 Y25.269 E20.9106
G1 X21.605 Y24.601 E20.9484
G1 X21.615 Y24.585 E20.9493
G1 X21.754 Y24.360 E20.9625
G1 X21.764 Y24.344 E20.9635
G1 X22.202 Y23.726 E21.0013
G1 X22.213 Y23.711 E21.0022
G1 X22.379 Y23.505 E21.0154
G1 X22.391 Y23.491 E21.0163
G1 X22.902 Y22.931 E21.0541
G1 X22.915 Y22.918 E21.0550
G1 X23.197 Y23.201 F3600
G92 E0
G1 X23.378 Y23.025 E0.0126 F1500
G1 X23.383 Y23.021 E0.0129
G1 X23.949 Y22.536 E0.0501
G1 X23.954 Y22.533 E0.0504
G1 X24.155 Y22.380 E0.0630
G1 X24.160 Y22.377 E0.0633
G1 X24.782 Y21.965 E0.1005
G1 X24.787 Y21.962 E0.1008
G1 X25.006 Y21.835 E0.1134
G1 X25.011 Y21.832 E0.1137
G1 X25.678 Y21.500 E0.1509
G1 X25.684 Y21.498 E0.1512
G1 X25.916 Y21.399 E0.1638
G1 X25.922 Y21.397 E0.1641
G1 X26.624 Y21.150 E0.2012
G1 X26.630 Y21.148 E0.2015
G1 X26.873 Y21.079 E0.2141
G1 X26.879 Y21.077 E0.2145
G1 X27.607 Y20.918 E0.2516
G1 X27.613 Y20.916 E0.2519
G1 X27.863 Y20.878 E0.2646
G1 X27.869 Y20.877 E0.2649
G1 X28.580 Y20.811 E0.3005
G1 X28.585 Y20.811 E0.3007
G1 X28.774 Y20.802 E0.3102
G1 X28.778 Y20.802 E0.3104
G1 X120.905 Y20.802 E4.9066
G1 X120.906 Y20.802 E4.9067
G1 X120.969 Y20.803 E4.9098
G1 X120.971 Y20.803 E4.9099
G1 X121.621 Y20.823 E4.9423
G1 X121.627 Y20.823 E4.9426
G1 X121.878 Y20.847 E4.9552
G1 X121.885 Y20.847 E4.9555
G1 X122.621 Y20.962 E4.9927
G1 X122.627 Y20.963 E4.9930
G1 X122.874 Y21.017 E5.0056
G1 X122.880 Y21.018 E5.0059
G1 X123.596 Y21.222 E5.0431
G1 X123.602 Y21.224 E5.0434
G1 X123.840 Y21.308 E5.0560
G1 X123.846 Y21.310 E5.0563
G1 X124.532 Y21.601 E5.0935
G1 X124.538 Y21.603 E5.0938
G1 X124.764 Y21.716 E5.1064
G1 X124.770 Y21.719 E5.1067
G1 X125.415 Y22.092 E5.1439
G1 X125.421 Y22.095 E5.1442
G1 X125.631 Y22.234 E5.1568
G1 X125.636 Y22.238 E5.1571
G1 X126.231 Y22.687 E5.1943
G1 X126.235 Y22.691 E5.1946
G1 X126.427 Y22.855 E5.2072
G1 X126.432 Y22.859 E5.2075
G1 X126.967 Y23.378 E5.2447
G1 X126.971 Y23.382 E5.2450
G1 X127.141 Y23.569 E5.2576
G1 X127.145 Y23.574 E5.2579
G1 X127.612 Y24.154 E5.2951
G1 X127.616 Y24.159 E5.2954
G1 X127.762 Y24.366 E5.3080
G1 X127.766 Y24.371 E5.3083
G1 X128.158 Y25.004 E5.3455
G1 X128.161 Y25.009 E5.3458
G1 X128.280 Y25.232 E5.3584
G1 X128.283 Y25.237 E5.3587
G1 X128.594 Y25.914 E5.3959
G1 X128.597 Y25.920 E5.3962
G1 X128.688 Y26.155 E5.4088
G1 X128.690 Y26.161 E5.4091
G1 X128.916 Y26.871 E5.4463
G1 X128.918 Y26.877 E5.4466
G1 X128.979 Y27.122 E5.4592
G1 X128.981 Y27.128 E5.4595
G1 X129.118 Y27.861 E5.4967
G1 X129.119 Y27.867 E5.4970
G1 X129.150 Y28.118 E5.5096
G1 X129.150 Y28.124 E5.5099
G1 X129.192 Y28.805 E5.5439
G1 X129.192 Y28.808 E5.5441
G1 X129.196 Y28.934 E5.5504
G1 X129.196 Y28.937 E5.5505
G1 X129.196 Y121.063 E10.1467
G1 X129.196 Y121.066 E10.1469
G1 X129.192 Y121.192 E10.1532
G1 X129.192 Y121.195 E10.1533
G1 X129.150 Y121.876 E10.1873
G1 X129.150 Y121.882 E10.1876
G1 X129.119 Y122.133 E10.2003
G1 X129.118 Y122.139 E10.2006
G1 X128.981 Y122.872 E10.2377
G1 X128.979 Y122.878 E10.2380
G1 X128.918 Y123.123 E10.2506
G1 X128.916 Y123.129 E10.2510
G1 X128.690 Y123.839 E10.2881
G1 X128.688 Y123.845 E10.2884
G1 X128.597 Y124.080 E10.3011
G1 X128.594 Y124.086 E10.3014
G1 X128.283 Y124.763 E10.3385
G1 X128.280 Y124.768 E10.3388
G1 X128.161 Y124.991 E10.3514
G1 X128.158 Y124.996 E10.3517
G1 X127.766 Y125.629 E10.3889
G1 X127.762 Y125.634 E10.3892
G1 X127.616 Y125.841 E10.4018
G1 X127.612 Y125.846 E10.4021
G1 X127.145 Y126.426 E10.4393
G1 X127.141 Y126.431 E10.4396
G1 X126.971 Y126.618 E10.4522
G1 X126.967 Y126.622 E10.4525
G1 X126.432 Y127.141 E10.4897
G1 X126.427 Y127.145 E10.4900
G1 X126.235 Y127.309 E10.5026
G1 X126.231 Y127.313 E10.5029
G1 X125.636 Y127.762 E10.5401
G1 X125.631 Y127.766 E10.5404
G1 X125.421 Y127.905 E10.5530
G1 X125.415 Y127.908 E10.5533
G1 X124.770 Y128.281 E10.5905
G1 X124.765 Y128.284 E10.5908
G1 X124.538 Y128.397 E10.6034
G1 X124.532 Y128.399 E10.6037
G1 X123.846 Y128.690 E10.6409
G1 X123.840 Y128.692 E10.6412
G1 X123.602 Y128.776 E10.6538
G1 X123.596 Y128.778 E10.6541
G1 X122.880 Y128.982 E10.6913
G1 X122.874 Y128.983 E10.6916
G1 X122.627 Y129.037 E10.7042
G1 X122.621 Y129.038 E10.7045
G1 X121.885 Y129.153 E10.7417
G1 X121.878 Y129.153 E10.7420
G1 X121.627 Y129.177 E10.7546
G1 X121.621 Y129.177 E10.7549
G1 X120.971 Y129.197 E10.7873
G1 X120.969 Y129.197 E10.7874
G1 X120.906 Y129.198 E10.7906
G1 X120.905 Y129.198 E10.7906
G1 X28.778 Y129.198 E15.3868
G1 X28.774 Y129.198 E15.3871
G1 X28.585 Y129.189 E15.3965
G1 X28.580 Y129.189 E15.3967
G1 X27.869 Y129.123 E15.4323
G1 X27.863 Y129.122 E15.4326
G1 X27.613 Y129.084 E15.4453
G1 X27.607 Y129.082 E15.4456
G1 X26.879 Y128.923 E15.4828
G1 X26.873 Y128.921 E15.4831
G1 X26.630 Y128.852 E15.4957
G1 X26.624 Y128.850 E15.4960
G1 X25.922 Y128.603 E15.5331
G1 X25.916 Y128.601 E15.5334
G1 X25.684 Y128.502 E15.5460
G1 X25.678 Y128.500 E15.5463
G1 X25.011 Y128.168 E15.5835
