; G-Code generated by Simplify3D(R) Version 3.0.2
; Jan 7, 2016 at 9:37:11 AM
; Settings Summary
;   processName,Process1
;   applyToModels,spacer
;   profileName,MakerBot Replicator 2(2) (modified)
;   profileVersion,2015-05-01 08:00:00
;   baseProfile,
;   printMaterial,PLA
;   printQuality,Medium
;   printExtruders,
;   extruderName,Primary Extruder
;   extruderToolheadNumber,0
;   extruderDiameter,0.4
;   extruderAutoWidth,0
;   extruderWidth,0.4
;   extrusionMultiplier,0.9
;   extruderUseRetract,1
;   extruderRetractionDistance,1
;   extruderExtraRestartDistance,0
;   extruderRetractionZLift,0
;   extruderRetractionSpeed,1200
;   extruderUseCoasting,0
;   extruderCoastingDistance,0.2
;   extruderUseWipe,0
;   extruderWipeDistance,5
;   primaryExtruder,0
;   layerHeight,0.3
;   topSolidLayers,3
;   bottomSolidLayers,3
;   perimeterOutlines,2
;   printPerimetersInsideOut,1
;   startPointOption,2
;   startPointOriginX,0
;   startPointOriginY,0
;   startPointOriginZ,300
;   sequentialIslands,0
;   spiralVaseMode,0
;   firstLayerHeightPercentage,90
;   firstLayerWidthPercentage,100
;   firstLayerUnderspeed,0.5
;   useRaft,0
;   raftExtruder,0
;   raftLayers,3
;   raftOffset,3
;   raftSeparationDistance,0.14
;   raftInfill,85
;   disableRaftBaseLayers,0
;   useSkirt,1
;   skirtExtruder,0
;   skirtLayers,1
;   skirtOutlines,2
;   skirtOffset,4
;   usePrimePillar,0
;   primePillarExtruder,999
;   primePillarWidth,12
;   primePillarLocation,7
;   primePillarSpeedMultiplier,1
;   useOozeShield,0
;   oozeShieldExtruder,999
;   oozeShieldOffset,2
;   oozeShieldOutlines,1
;   oozeShieldSidewallShape,1
;   oozeShieldSidewallAngle,30
;   oozeShieldSpeedMultiplier,1
;   infillExtruder,0
;   internalInfillPattern,Rectilinear
;   externalInfillPattern,Rectilinear
;   infillPercentage,10
;   outlineOverlapPercentage,20
;   infillExtrusionWidthPercentage,100
;   minInfillLength,5
;   infillLayerInterval,1
;   infillAngles,45,-45
;   overlapInfillAngles,0
;   generateSupport,0
;   supportExtruder,0
;   supportInfillPercentage,30
;   supportExtraInflation,0
;   denseSupportLayers,0
;   denseSupportInfillPercentage,70
;   supportLayerInterval,1
;   supportHorizontalPartOffset,0.3
;   supportUpperSeparationLayers,1
;   supportLowerSeparationLayers,1
;   supportType,0
;   supportGridSpacing,4
;   maxOverhangAngle,45
;   supportAngles,0
;   temperatureName,Primary Extruder
;   temperatureNumber,0
;   temperatureSetpointCount,1
;   temperatureSetpointLayers,1
;   temperatureSetpointTemperatures,230
;   temperatureStabilizeAtStartup,0
;   temperatureHeatedBed,0
;   temperatureRelayBetweenLayers,0
;   temperatureRelayBetweenLoops,0
;   fanLayers,1,2
;   fanSpeeds,0,100
;   blipFanToFullPower,0
;   adjustSpeedForCooling,1
;   minSpeedLayerTime,15
;   minCoolingSpeedSlowdown,20
;   increaseFanForCooling,0
;   minFanLayerTime,45
;   maxCoolingFanSpeed,100
;   increaseFanForBridging,0
;   bridgingFanSpeed,100
;   use5D,1
;   relativeEdistances,1
;   allowEaxisZeroing,0
;   independentExtruderAxes,1
;   includeM10123,0
;   stickySupport,1
;   applyToolheadOffsets,0
;   gcodeXoffset,0
;   gcodeYoffset,0
;   gcodeZoffset,0
;   overrideMachineDefinition,1
;   machineTypeOverride,0
;   strokeXoverride,280
;   strokeYoverride,150
;   strokeZoverride,150
;   originOffsetXoverride,140
;   originOffsetYoverride,75
;   originOffsetZoverride,0
;   homeXdirOverride,1
;   homeYdirOverride,1
;   homeZdirOverride,-1
;   flipXoverride,1
;   flipYoverride,-1
;   flipZoverride,1
;   toolheadOffsets,0,0|0,0|0,0|0,0|0,0|0,0
;   overrideFirmwareConfiguration,1
;   firmwareTypeOverride,MakerBot/Sailfish Firmware
;   GPXconfigOverride,r2
;   baudRateOverride,115200
;   overridePrinterModels,1
;   printerModelsOverride,MakerBot_Replicator2.stl
;   startingGcode,; **** Replicator 2 start.gcode ****,M73 P0 ; enable build progress,G162 X Y F3000 ; home XY maximum,G161 Z F1200 ; home Z minimum,G92 Z-5 ; set Z to -5,G1 Z0 ; move Z to 0,G161 Z F100 ; home Z slowly,M132 X Y Z A B ; recall home offsets,G1 X-145 Y-75 Z30 F9000 ; move to wait position off table,G130 X20 Y20 Z20 A20 B20 ; lower stepper Vrefs while heating,M126 S[fan_speed_pwm],M104 S[extruder0_temperature] T0,M133 T0 ; stabilize extruder temperature,G130 X127 Y127 Z40 A127 B127 ; default stepper Vrefs,G92 A0 ; zero extruder,G1 Z0.4 ; position nozzle,G1 E25 F300 ; purge nozzle,G1 X-140 Y-70 Z0.15 F1200 ; slow wipe,G1 X-135 Y-65 Z0.5 F1200 ; lift,G92 A0 ; zero extruder,M73 P1 ;@body (notify GPX body has started),; **** end of start.gcode ****
;   layerChangeGcode,
;   retractionGcode,
;   toolChangeGcode,
;   endingGcode,; **** Replicator 2 end.gcode ****,M73 P100 ; end build progress,G1 Z155 F1000 ; send Z axis to bottom of machine,M104 S0 T0 ; cool down extruder,M127 ; stop blower fan,G162 X Y F3000 ; home XY maximum,M18 ; disable stepper,M72 P1 ; play Ta-Da song,; **** end of end.gcode ****
;   createX3G,1
;   celebration,0
;   celebrationSong,Random Song
;   createMB5G,0
;   postProcessing,
;   defaultSpeed,4800
;   outlineUnderspeed,0.5
;   solidInfillUnderspeed,0.8
;   supportUnderspeed,0.8
;   rapidXYspeed,9000
;   rapidZspeed,1200
;   minBridgingArea,50
;   bridgingExtraInflation,0
;   bridgingExtrusionMultiplier,1
;   bridgingSpeedMultiplier,0.8
;   filamentDiameter,1.75
;   filamentPricePerKg,46
;   filamentDensity,1.25
;   useMinPrintHeight,0
;   minPrintHeight,0
;   useMaxPrintHeight,0
;   maxPrintHeight,0
;   useDiaphragm,0
;   diaphragmLayerInterval,20
;   robustSlicing,1
;   mergeAllIntoSolid,0
;   onlyRetractWhenCrossingOutline,1
;   retractBetweenLayers,1
;   useRetractionMinTravel,0
;   retractionMinTravel,3
;   retractWhileWiping,0
;   onlyWipeOutlines,1
;   avoidCrossingOutline,0
;   maxMovementDetourFactor,3
;   toolChangeRetractionDistance,12
;   toolChangeExtraRestartDistance,-0.5
;   toolChangeRetractionSpeed,600
;   allowThinWallGapFill,1
;   thinWallAllowedOverlapPercentage,10
;   horizontalSizeCompensation,0
G90
M83
; **** Replicator 2 start.gcode ****
M73 P0 ; enable build progress
G162 X Y F3000 ; home XY maximum
G161 Z F1200 ; home Z minimum
G92 Z-5 ; set Z to -5
G1 Z0 ; move Z to 0
G161 Z F100 ; home Z slowly
M132 X Y Z A B ; recall home offsets
G1 X-145 Y-75 Z30 F9000 ; move to wait position off table
G130 X20 Y20 Z20 A20 B20 ; lower stepper Vrefs while heating
M127
M104 S230 T0
M133 T0 ; stabilize extruder temperature
G130 X127 Y127 Z40 A127 B127 ; default stepper Vrefs
G92 A0 ; zero extruder
G1 Z0.4 ; position nozzle
G1 E25 F300 ; purge nozzle
G1 X-140 Y-70 Z0.15 F1200 ; slow wipe
G1 X-135 Y-65 Z0.5 F1200 ; lift
G92 A0 ; zero extruder
M73 P1 ;@body (notify GPX body has started)
; **** end of start.gcode ****
G1 E-1.0000 F1200
G1 Z0.270 F1200
; layer 1, Z = 0.27
M135 T0
; tool H0.300 W0.400
; skirt
G1 X8.596 Y-0.151 F9000
G1 E1.0000 F360
G1 X8.596 Y-0.132 E0.0008 F960
G1 X8.596 Y0.132 E0.0119
G1 X8.596 Y0.151 E0.0008
G1 X8.549 Y0.907 E0.0340
G1 X8.547 Y0.925 E0.0008
G1 X8.515 Y1.188 E0.0119
G1 X8.512 Y1.207 E0.0008
G1 X8.373 Y1.951 E0.0340
G1 X8.369 Y1.969 E0.0008
G1 X8.304 Y2.226 E0.0119
G1 X8.299 Y2.244 E0.0008
G1 X8.069 Y2.966 E0.0340
G1 X8.063 Y2.983 E0.0008
G1 X7.968 Y3.230 E0.0119
G1 X7.960 Y3.247 E0.0008
G1 X7.644 Y3.935 E0.0340
G1 X7.636 Y3.952 E0.0008
G1 X7.510 Y4.185 E0.0119
G1 X7.501 Y4.201 E0.0008
G1 X7.102 Y4.846 E0.0340
G1 X7.092 Y4.861 E0.0008
G1 X6.938 Y5.078 E0.0119
G1 X6.927 Y5.093 E0.0008
G1 X6.451 Y5.684 E0.0341
G1 X6.439 Y5.698 E0.0008
G1 X6.260 Y5.894 E0.0119
G1 X6.247 Y5.907 E0.0008
G1 X5.703 Y6.434 E0.0340
G1 X5.689 Y6.447 E0.0008
G1 X5.488 Y6.619 E0.0119
G1 X5.474 Y6.631 E0.0008
G1 X4.869 Y7.087 E0.0340
G1 X4.854 Y7.098 E0.0008
G1 X4.633 Y7.244 E0.0119
G1 X4.617 Y7.254 E0.0008
G1 X3.961 Y7.632 E0.0340
G1 X3.945 Y7.641 E0.0008
G1 X3.708 Y7.759 E0.0119
G1 X3.691 Y7.767 E0.0008
G1 X2.993 Y8.062 E0.0340
G1 X2.976 Y8.068 E0.0008
G1 X2.726 Y8.156 E0.0119
G1 X2.708 Y8.162 E0.0008
G1 X1.980 Y8.369 E0.0340
G1 X1.962 Y8.373 E0.0008
G1 X1.703 Y8.430 E0.0119
G1 X1.685 Y8.433 E0.0008
G1 X0.937 Y8.549 E0.0340
G1 X0.918 Y8.551 E0.0008
G1 X0.654 Y8.576 E0.0119
G1 X0.636 Y8.577 E0.0008
G1 X-0.121 Y8.600 E0.0340
G1 X-0.140 Y8.600 E0.0008
G1 X-0.405 Y8.592 E0.0119
G1 X-0.423 Y8.590 E0.0008
G1 X-1.177 Y8.520 E0.0340
G1 X-1.196 Y8.518 E0.0008
G1 X-1.457 Y8.477 E0.0119
G1 X-1.476 Y8.474 E0.0008
G1 X-2.215 Y8.311 E0.0340
G1 X-2.233 Y8.307 E0.0008
G1 X-2.488 Y8.234 E0.0119
G1 X-2.506 Y8.229 E0.0008
G1 X-3.220 Y7.977 E0.0340
G1 X-3.237 Y7.970 E0.0008
G1 X-3.481 Y7.867 E0.0119
G1 X-3.498 Y7.859 E0.0008
G1 X-4.176 Y7.521 E0.0340
G1 X-4.192 Y7.512 E0.0008
G1 X-4.421 Y7.380 E0.0119
G1 X-4.437 Y7.370 E0.0008
G1 X-5.068 Y6.952 E0.0340
G1 X-5.083 Y6.941 E0.0008
G1 X-5.294 Y6.782 E0.0119
G1 X-5.308 Y6.770 E0.0008
G1 X-5.882 Y6.279 E0.0339
G1 X-5.895 Y6.266 E0.0008
G1 X-6.086 Y6.082 E0.0119
G1 X-6.099 Y6.069 E0.0008
G1 X-6.609 Y5.509 E0.0340
G1 X-6.621 Y5.495 E0.0008
G1 X-6.787 Y5.288 E0.0119
G1 X-6.798 Y5.274 E0.0008
G1 X-7.236 Y4.655 E0.0340
G1 X-7.246 Y4.640 E0.0008
G1 X-7.385 Y4.415 E0.0119
G1 X-7.395 Y4.399 E0.0008
G1 X-7.753 Y3.731 E0.0340
G1 X-7.761 Y3.715 E0.0008
G1 X-7.872 Y3.474 E0.0119
G1 X-7.879 Y3.457 E0.0008
G1 X-8.153 Y2.751 E0.0340
G1 X-8.159 Y2.733 E0.0008
G1 X-8.239 Y2.481 E0.0119
G1 X-8.244 Y2.463 E0.0008
G1 X-8.429 Y1.729 E0.0340
G1 X-8.433 Y1.711 E0.0008
G1 X-8.482 Y1.450 E0.0119
G1 X-8.485 Y1.432 E0.0008
G1 X-8.578 Y0.680 E0.0340
G1 X-8.579 Y0.662 E0.0008
G1 X-8.596 Y0.397 E0.0119
G1 X-8.596 Y0.379 E0.0008
G1 X-8.596 Y-0.379 E0.0340
G1 X-8.596 Y-0.397 E0.0008
G1 X-8.579 Y-0.662 E0.0119
G1 X-8.578 Y-0.680 E0.0008
G1 X-8.485 Y-1.432 E0.0340
G1 X-8.482 Y-1.450 E0.0008
G1 X-8.433 Y-1.711 E0.0119
G1 X-8.429 Y-1.729 E0.0008
G1 X-8.244 Y-2.463 E0.0340
G1 X-8.239 Y-2.481 E0.0008
G1 X-8.159 Y-2.733 E0.0119
G1 X-8.153 Y-2.751 E0.0008
G1 X-7.879 Y-3.457 E0.0340
G1 X-7.872 Y-3.474 E0.0008
G1 X-7.761 Y-3.715 E0.0119
G1 X-7.753 Y-3.731 E0.0008
G1 X-7.395 Y-4.399 E0.0340
G1 X-7.385 Y-4.415 E0.0008
G1 X-7.246 Y-4.640 E0.0119
G1 X-7.236 Y-4.655 E0.0008
G1 X-6.799 Y-5.272 E0.0339
G1 X-6.788 Y-5.287 E0.0008
G1 X-6.622 Y-5.493 E0.0119
G1 X-6.610 Y-5.507 E0.0008
G1 X-6.097 Y-6.070 E0.0342
G1 X-6.084 Y-6.083 E0.0008
G1 X-5.893 Y-6.268 E0.0119
G1 X-5.879 Y-6.281 E0.0008
G1 X-5.304 Y-6.774 E0.0340
G1 X-5.289 Y-6.785 E0.0008
G1 X-5.078 Y-6.945 E0.0119
G1 X-5.063 Y-6.955 E0.0008
G1 X-4.431 Y-7.374 E0.0340
G1 X-4.415 Y-7.383 E0.0008
G1 X-4.186 Y-7.516 E0.0119
G1 X-4.170 Y-7.524 E0.0008
G1 X-3.492 Y-7.862 E0.0340
G1 X-3.475 Y-7.869 E0.0008
G1 X-3.231 Y-7.973 E0.0119
G1 X-3.213 Y-7.979 E0.0008
G1 X-2.499 Y-8.231 E0.0340
G1 X-2.481 Y-8.236 E0.0008
G1 X-2.226 Y-8.309 E0.0119
G1 X-2.209 Y-8.313 E0.0008
G1 X-1.469 Y-8.475 E0.0340
G1 X-1.450 Y-8.478 E0.0008
G1 X-1.189 Y-8.519 E0.0119
G1 X-1.170 Y-8.521 E0.0008
G1 X-0.416 Y-8.591 E0.0340
G1 X-0.398 Y-8.592 E0.0008
G1 X-0.133 Y-8.600 E0.0119
G1 X-0.114 Y-8.600 E0.0008
G1 X0.643 Y-8.576 E0.0340
G1 X0.661 Y-8.575 E0.0008
G1 X0.925 Y-8.551 E0.0119
G1 X0.943 Y-8.548 E0.0008
G1 X1.692 Y-8.432 E0.0340
G1 X1.710 Y-8.428 E0.0008
G1 X1.969 Y-8.372 E0.0119
G1 X1.987 Y-8.367 E0.0008
G1 X2.715 Y-8.160 E0.0340
G1 X2.733 Y-8.154 E0.0008
G1 X2.983 Y-8.066 E0.0119
G1 X3.000 Y-8.059 E0.0008
G1 X3.697 Y-7.764 E0.0340
G1 X3.714 Y-7.756 E0.0008
G1 X3.951 Y-7.638 E0.0119
G1 X3.967 Y-7.629 E0.0008
G1 X4.623 Y-7.250 E0.0340
G1 X4.639 Y-7.240 E0.0008
G1 X4.860 Y-7.094 E0.0119
G1 X4.875 Y-7.083 E0.0008
G1 X5.479 Y-6.627 E0.0340
G1 X5.493 Y-6.615 E0.0008
G1 X5.694 Y-6.443 E0.0119
G1 X5.707 Y-6.431 E0.0008
G1 X6.250 Y-5.905 E0.0339
G1 X6.262 Y-5.892 E0.0008
G1 X6.441 Y-5.696 E0.0119
G1 X6.453 Y-5.682 E0.0008
G1 X6.928 Y-5.092 E0.0340
G1 X6.939 Y-5.077 E0.0008
G1 X7.092 Y-4.861 E0.0119
G1 X7.102 Y-4.845 E0.0008
G1 X7.501 Y-4.201 E0.0340
G1 X7.510 Y-4.185 E0.0008
G1 X7.636 Y-3.952 E0.0119
G1 X7.644 Y-3.935 E0.0008
G1 X7.960 Y-3.247 E0.0340
G1 X7.968 Y-3.230 E0.0008
G1 X8.063 Y-2.983 E0.0119
G1 X8.069 Y-2.966 E0.0008
G1 X8.299 Y-2.244 E0.0340
G1 X8.304 Y-2.226 E0.0008
G1 X8.369 Y-1.969 E0.0119
G1 X8.373 Y-1.951 E0.0008
G1 X8.512 Y-1.207 E0.0340
G1 X8.515 Y-1.188 E0.0008
G1 X8.547 Y-0.925 E0.0119
G1 X8.549 Y-0.907 E0.0008
G1 X8.596 Y-0.151 E0.0340
G1 X8.196 Y-0.132 F9000
G1 X8.196 Y-0.126 E0.0003 F960
G1 X8.196 Y0.126 E0.0113
G1 X8.196 Y0.132 E0.0003
G1 X8.150 Y0.876 E0.0335
G1 X8.150 Y0.882 E0.0003
G1 X8.119 Y1.133 E0.0113
G1 X8.118 Y1.139 E0.0003
G1 X7.981 Y1.872 E0.0335
G1 X7.979 Y1.878 E0.0003
G1 X7.918 Y2.123 E0.0113
G1 X7.916 Y2.129 E0.0003
G1 X7.690 Y2.839 E0.0335
G1 X7.688 Y2.844 E0.0003
G1 X7.597 Y3.080 E0.0113
G1 X7.594 Y3.086 E0.0003
G1 X7.283 Y3.763 E0.0335
G1 X7.280 Y3.768 E0.0003
G1 X7.161 Y3.991 E0.0113
G1 X7.158 Y3.996 E0.0003
G1 X6.765 Y4.630 E0.0335
G1 X6.762 Y4.635 E0.0003
G1 X6.615 Y4.842 E0.0114
G1 X6.612 Y4.847 E0.0003
G1 X6.143 Y5.429 E0.0335
G1 X6.139 Y5.433 E0.0003
G1 X5.969 Y5.620 E0.0113
G1 X5.964 Y5.624 E0.0003
G1 X5.429 Y6.143 E0.0335
G1 X5.425 Y6.147 E0.0003
G1 X5.233 Y6.311 E0.0113
G1 X5.228 Y6.315 E0.0003
G1 X4.633 Y6.764 E0.0335
G1 X4.628 Y6.768 E0.0003
G1 X4.417 Y6.907 E0.0113
G1 X4.412 Y6.910 E0.0003
G1 X3.767 Y7.283 E0.0335
G1 X3.761 Y7.285 E0.0003
G1 X3.535 Y7.398 E0.0113
G1 X3.530 Y7.401 E0.0003
G1 X2.843 Y7.691 E0.0335
G1 X2.838 Y7.693 E0.0003
G1 X2.599 Y7.777 E0.0113
G1 X2.593 Y7.779 E0.0003
G1 X1.877 Y7.982 E0.0335
G1 X1.871 Y7.984 E0.0003
G1 X1.624 Y8.038 E0.0113
G1 X1.618 Y8.039 E0.0003
G1 X0.881 Y8.153 E0.0335
G1 X0.875 Y8.154 E0.0003
G1 X0.624 Y8.177 E0.0113
G1 X0.618 Y8.177 E0.0003
G1 X-0.127 Y8.200 E0.0335
G1 X-0.133 Y8.200 E0.0003
G1 X-0.386 Y8.192 E0.0113
G1 X-0.392 Y8.192 E0.0003
G1 X-1.134 Y8.123 E0.0335
G1 X-1.140 Y8.122 E0.0003
G1 X-1.390 Y8.083 E0.0113
G1 X-1.396 Y8.082 E0.0003
G1 X-2.124 Y7.922 E0.0335
G1 X-2.130 Y7.921 E0.0003
G1 X-2.372 Y7.851 E0.0113
G1 X-2.378 Y7.849 E0.0003
G1 X-3.081 Y7.602 E0.0335
G1 X-3.087 Y7.599 E0.0003
G1 X-3.319 Y7.501 E0.0113
G1 X-3.325 Y7.498 E0.0003
G1 X-3.992 Y7.166 E0.0335
G1 X-3.997 Y7.163 E0.0003
G1 X-4.216 Y7.036 E0.0113
G1 X-4.221 Y7.033 E0.0003
G1 X-4.842 Y6.622 E0.0334
G1 X-4.847 Y6.618 E0.0003
G1 X-5.048 Y6.466 E0.0113
G1 X-5.053 Y6.462 E0.0003
G1 X-5.617 Y5.979 E0.0334
G1 X-5.621 Y5.975 E0.0003
G1 X-5.803 Y5.799 E0.0113
G1 X-5.807 Y5.794 E0.0003
G1 X-6.309 Y5.244 E0.0335
G1 X-6.313 Y5.239 E0.0003
G1 X-6.471 Y5.042 E0.0113
G1 X-6.475 Y5.037 E0.0003
G1 X-6.906 Y4.429 E0.0335
G1 X-6.909 Y4.424 E0.0003
G1 X-7.042 Y4.209 E0.0113
G1 X-7.045 Y4.204 E0.0003
G1 X-7.398 Y3.547 E0.0335
G1 X-7.400 Y3.542 E0.0003
G1 X-7.506 Y3.312 E0.0113
G1 X-7.508 Y3.307 E0.0003
G1 X-7.778 Y2.612 E0.0335
G1 X-7.780 Y2.606 E0.0003
G1 X-7.856 Y2.366 E0.0113
G1 X-7.858 Y2.360 E0.0003
G1 X-8.040 Y1.637 E0.0335
G1 X-8.041 Y1.631 E0.0003
G1 X-8.087 Y1.383 E0.0113
G1 X-8.088 Y1.376 E0.0003
G1 X-8.180 Y0.637 E0.0335
G1 X-8.180 Y0.631 E0.0003
G1 X-8.196 Y0.379 E0.0113
G1 X-8.196 Y0.373 E0.0003
G1 X-8.196 Y-0.373 E0.0335
G1 X-8.196 Y-0.379 E0.0003
G1 X-8.180 Y-0.631 E0.0113
G1 X-8.180 Y-0.637 E0.0003
G1 X-8.088 Y-1.376 E0.0335
G1 X-8.087 Y-1.383 E0.0003
G1 X-8.041 Y-1.631 E0.0113
G1 X-8.040 Y-1.637 E0.0003
G1 X-7.858 Y-2.360 E0.0335
G1 X-7.856 Y-2.366 E0.0003
G1 X-7.780 Y-2.606 E0.0113
G1 X-7.778 Y-2.612 E0.0003
G1 X-7.508 Y-3.307 E0.0335
G1 X-7.506 Y-3.312 E0.0003
G1 X-7.400 Y-3.542 E0.0113
G1 X-7.398 Y-3.547 E0.0003
G1 X-7.045 Y-4.204 E0.0335
G1 X-7.042 Y-4.209 E0.0003
G1 X-6.909 Y-4.424 E0.0113
G1 X-6.906 Y-4.429 E0.0003
G1 X-6.476 Y-5.036 E0.0334
G1 X-6.472 Y-5.041 E0.0003
G1 X-6.314 Y-5.238 E0.0113
G1 X-6.310 Y-5.243 E0.0003
G1 X-5.806 Y-5.796 E0.0336
G1 X-5.801 Y-5.800 E0.0003
G1 X-5.619 Y-5.977 E0.0114
G1 X-5.615 Y-5.981 E0.0003
G1 X-5.048 Y-6.466 E0.0335
G1 X-5.043 Y-6.470 E0.0003
G1 X-4.842 Y-6.622 E0.0113
G1 X-4.837 Y-6.625 E0.0003
G1 X-4.215 Y-7.037 E0.0335
G1 X-4.210 Y-7.040 E0.0003
G1 X-3.991 Y-7.166 E0.0113
G1 X-3.986 Y-7.169 E0.0003
G1 X-3.319 Y-7.501 E0.0335
G1 X-3.313 Y-7.503 E0.0003
G1 X-3.081 Y-7.602 E0.0113
G1 X-3.075 Y-7.604 E0.0003
G1 X-2.372 Y-7.851 E0.0335
G1 X-2.366 Y-7.853 E0.0003
G1 X-2.123 Y-7.922 E0.0113
G1 X-2.117 Y-7.924 E0.0003
G1 X-1.389 Y-8.083 E0.0335
